!!!!SEGMENT: pl-wumfc--r308_paderewski-ignacy-jan--instrumental-piece.krn
!!!cenid: 18xx:3383
!!!COM: Paderewski, Ignacy Jan
!!!COM-rismID: pe30029943
!!!CDT: 1860/11/18-1941/06/29
!!!CNT: Polish
!!!OTL: [Instrumental piece]
!!!PDT:
!!!AGN:
!!!SMS-siglum: PL-Wumfc
!!!SMS-shelfmark: R308
!!!SMS-shelfwork: W
!!!SMS-variant:
!!!SMS-altvar:
!!!NIFC-rismSourceID: 1001159528
!!!NIFC-islandoraID: pl-wumfc:700
!!!URL-pdf-islandora: https://repozytorium.nifc.pl/islandora/object/pl-wumfc%3A700/datastream/PDF/view
!!!URL-scan: https://polish.musicsources.pl/pl/lokalizacje/galeria/rekopisy/4729 @EN{Scan on Polish Music Sources Website} @PL{Skany w portalu Dziedzictwo Muzyki Polskiej w otwartym dostępie}
!!!ONB-nifc:
!!!AIN: 1 alto 1 cello 1 empty 1 violn
!!!key:
**kern	**kern	**dynam	**kern	**kern
*part4	*part3	*part3	*part2	*part1
*staff4	*staff3	*	*staff2	*staff1
*Icello	*Ialto	*	*Iempty	*Ivioln
*I"Cello.	*I"alto	*	*I"Violino IIo	*I"Violino Io
*I'vlc	*I'vla	*	*I'vl 2	*I'vl 1
*clefF4	*clefC3	*	*clefG2	*clefG2
*k[b-]	*k[b-]	*	*k[b-]	*k[b-]
*F:	*F:	*	*F:	*F:
*M3/4	*M3/4	*	*M3/4	*M3/4
=1	=1	=1	=1	=1
*	*	*	*	*2,4,8\all różnie
!	!	!	!	!LO:TX:a:t=Tema.
4r	4r	.	4r	(4f/
2F\	4A/	.	[2f/	4cc/)
.	4B-/	.	.	(4dd/
=2	=2	=2	=2	=2
2C\	4c/	.	4f/]	4f/)
.	4B-/	.	4e/	8a/L
.	.	.	.	8b-/J
4F\	4A/	.	4e-X/	(4cc/
=3	=3	=3	=3	=3
2.BB-\	4B-/	.	2.d/	4b-/)
.	4F#X/	.	.	4a/
.	4G/	.	.	4g/
=4	=4	=4	=4	=4
4BBn\	4A-X/	.	4d/	(4f/
2C\	2G/	.	4c/	2e/)
.	.	.	4B-/	.
=5	=5	=5	=5	=5
!	!	!	!	!LO:SIC:v:t=znak zamazany
4FF\	4F/	.	4A/	4r
2F\	4A/	.	2f/	(>4cc/
.	4B-/	.	.	4dd/
=6	=6	=6	=6	=6
2E\	4e/	.	2g/	4cc/
.	4c/	.	.	8dd/L
.	.	.	.	8ee/J
4D\	4Bn/	.	4a/	4ff/)
=7	=7	=7	=7	=7
4C\	4c/	.	2.a/	(>4ee/
4BBn\	4f/	.	.	4dd/
4E\	4e/	.	.	4cc/)
!!LO:LB:g=original
=8	=8	=8	=8	=8
4EE\	4d/	.	4g#X/	4bn/
2AA\	2c/	.	2a/	2a/
=9||	=9||	=9||	=9||	=9||
4AA~\	4r	.	4r	4r
4A\	(4c/	.	(4g/	(>4ee-X/
4A\	4c/	.	4g/	4ee-/
=10	=10	=10	=10	=10
2D\	4d/	.	4f#X/	4dd/
.	4c/	.	8e/L	8g/L
.	.	.	8f#/J	8a/J
4GG\	4B-/)	.	4g/)	4b-/)
=11	=11	=11	=11	=11
(4GG\	4r	.	4r	4r
4G\)	4B-/	.	4f/	4dd-X/
4G\	4B-/	.	4f/	4dd-/
=12	=12	=12	=12	=12
2C\	4c/	.	4e/	4cc/
.	4B-/	.	8d/L	8f/L
.	.	.	8e/J	8g/J
4FF\	4A/	.	4f/	4a/
=13	=13	=13	=13	=13
4FF\	4r	.	4r	4r
2F\	4A/	.	[2f/	4cc/
.	4B-/	.	.	4cc/
=14	=14	=14	=14	=14
2C\	4c/	.	4f/]	4g/
.	4B-/	.	4e/	8a/L
.	.	.	.	8b-/J
4FF#X\	4A/	.	4e-X/	4cc/
=15	=15	=15	=15	=15
4GG\	4B-/	.	2.d/	4b-/
4AA\	4F#X/	.	.	4a/
4BB-\	4G/	.	.	4g/
=16	=16	=16	=16	=16
4C\	4c/	.	4e/	4g/
2FF\	2B-/	.	2f/	2f/
!!LO:LB:g=original
=17||	=17||	=17||	=17||	=17||
!	!	!	!	!LO:TX:a:t=Var.1.
4F\	2.r	.	2a/	4r
4c\	.	.	.	8aa\L
.	.	.	.	8gg\
4d\	.	.	4r	8ff\
.	.	.	.	8ee\J
=18	=18	=18	=18	=18
4G\	4r	.	4b-\	2dd\
8A\L	4r	.	8cc\L	.
8B-\J	.	.	8b-\	.
4c\	[>4c/	.	8a\	4ee\
.	.	.	8g\J	.
=19	=19	=19	=19	=19
4B-\	4c/]	.	8e/L	4gg\
.	.	.	8g/J	.
4A\	8f\L	.	4a/	4ff\
.	8d\	.	.	.
4G\	8c\	.	4b-/	4gg\
.	8B-\J	.	.	.
=20	=20	=20	=20	=20
4F\	4A/	.	[>2.cc/	8gg#X\L
.	.	.	.	8aa\J
2E\	4G/	.	.	8ccc\L
.	.	.	.	8bb-\
.	4c/	.	.	8aa\
.	.	.	.	8ggn\J
=21	=21	=21	=21	=21
4F\	2.r	.	4cc/]	[<2.aa\
4c\	.	.	8b-/L	.
.	.	.	8a/	.
4d\	.	.	8g/	.
.	.	.	8f/J	.
=22	=22	=22	=22	=22
4c\	2.r	.	4e/	8aa\L]
.	.	.	.	8ee\J
8d\L	.	.	4f/	8dd\L
8e\J	.	.	.	8cc\
4f\	.	.	8d/L	8bn\
.	.	.	8d#X/J	8a\J
=23	=23	=23	=23	=23
4e\	4r	.	4e/	4cc\
4d\	8a\L	.	4f/	4dd\
.	8g\	.	.	.
4c\	8f\	.	4a/	4ee\
.	8e\J	.	.	.
=24	=24	=24	=24	=24
4Bn\	2.e\	.	4dd\	8ff#X\L
.	.	.	.	8gg#X\J
2A\	.	.	8cc\L	2aa\
.	.	.	8b-\	.
.	.	.	8a\	.
.	.	.	8g\J	.
!!LO:LB:g=original
=25||	=25||	=25||	=25||	=25||
4r	2.r	.	4f#X/	2.r
4e-X\	.	.	8cc/L	.
.	.	.	8b-/	.
4e-\	.	.	8a/	.
.	.	.	8g/J	.
=26	=26	=26	=26	=26
4d\	2.d\	.	4f#X/	4dd\
8G\L	.	.	[2g/	8bb-\L
8A\J	.	.	.	8aa\
4B-\	.	.	.	8gg\
.	.	.	.	8ff\J
=27	=27	=27	=27	=27
4r	4c\	.	4g/]	2ee\
4d-X\	8b-\L	.	2r	.
.	8a\	.	.	.
4d-\	8g\	.	.	4ff\
.	8f\J	.	.	.
=28	=28	=28	=28	=28
4c\	4e\	.	4r	4gg\
8F\L	4f\	.	8cc\L	4aa\
8G\J	.	.	8b-\	.
4A\	[4c\	.	8a\	[4ccc\
.	.	.	8g\J	.
=29	=29	=29	=29	=29
4F\	4c\]	.	2.a\	4ccc\]
4c\	4r	.	.	8aa\L
.	.	.	.	8gg\
4d\	4r	.	.	8ff\
.	.	.	.	8ee\J
=30	=30	=30	=30	=30
4G\	4r	.	4b-\	2dd\
8A\L	4r	.	8cc\L	.
8B-\J	.	.	8b-\	.
4c\	[4c\	.	8a\	4ee\
.	.	.	8g\J	.
=31	=31	=31	=31	=31
4B-\	4c\]	.	4e/	4gg\
4A\	8d\L	.	4f/	8ff\L
.	8c\	.	.	8aa\
4G\	8B-\	.	8g/L	8bb-\
.	8d\J	.	8a/J	8ccc\J
=32	=32	=32	=32	=32
4G\	2.c\	.	4b-/	8ddd\L
.	.	.	.	8eee\J
2F\	.	.	2a/	2fff\
!!LO:PB:g=original
=33||	=33||	=33||	=33||	=33||
*M3/4	*M3/4	*	*M3/4	*M3/4
!	!	!	!	!LO:TX:a:t=2 Var.
4F 4FF\	2c\	.	[4a/	16r
.	.	.	.	(16aa/LL
.	.	.	.	16ee/
.	.	.	.	16ff/JJ
[<2F\	.	.	16a/LL]	4cc/)
.	.	.	(16a/	.
.	.	.	16e/	.
.	.	.	16f/JJ	.
.	16B-/LL	.	8d/L)	4dd/
.	(16d/	.	.	.
.	16F#X/	.	8b-/J	.
.	16G/JJ)	.	.	.
=34	=34	=34	=34	=34
16F\LL]	[4c\	.	4g/	8ee/L
(16E\	.	.	.	.
16BBn\	.	.	.	8gg/J
16C\JJ)	.	.	.	.
4F\	16c\LL]	.	8a/L	[>4ff/
.	(16f\	.	.	.
.	16c\	.	8b-/J	.
.	16d\JJ)	.	.	.
4FF\	4e-X\	.	4cc/	16ff/LL]
.	.	.	.	16ccc/
.	.	.	.	16gg/
.	.	.	.	16aa/JJ
=35	=35	=35	=35	=35
4GG\	4d 4G\	.	16b-/LL	4bb-/
.	.	.	(16dd/	.
.	.	.	16f#X/	.
.	.	.	16g/JJ	.
!	!LO:TX:t=P:problem=niewyraźnie napisane	!	!	!
4AA\	16c/LL	.	8ccL 8a/)	[>4aa/
.	16c/	.	.	.
.	16E/	.	8a/J	.
.	16F#X/JJ	.	.	.
16BB-\LL	4G/	.	8g/L	8aa/L]
(16D\	.	.	.	.
16GG\	.	.	8dd/J	16bb-/L
16AA\JJ)	.	.	.	16ccc/JJ
=36	=36	=36	=36	=36
4BBn\	8G/L	.	[>4gg/	(16ddd/LL
.	.	.	.	16fff/
.	8d/J	.	.	16ff#X/
.	.	.	.	16gg/JJ)
2C\	[4c\	.	16gg/LL]	8eee/L
.	.	.	(16gg/	.
.	.	.	16bn/	8ddd/
.	.	.	16cc/JJ	.
.	16c/LL]	.	8dd/L)	8ccc/
.	(<16g/	.	.	.
.	16Bn/	.	8ee/J	8bb-/J
.	16c/JJ	.	.	.
=37	=37	=37	=37	=37
4F\	[4c\)	.	8ff/L	16ree
.	.	.	.	16aa/LL
.	.	.	[>8cc/J	16ee/
.	.	.	.	16ff/JJ
4FF\	8c\L]	.	16cc/LL]	4cc/
.	.	.	(16a/	.
.	[8A\J	.	16e/	.
.	.	.	16f/JJ	.
4F\	16A\LL]	.	8d/L)	4dd/
.	(16a\	.	.	.
.	16A\	.	[>8a/J	.
.	16Bn\JJ	.	.	.
=38	=38	=38	=38	=38
16E\LL	4c\)	.	8a/L]	4cc/
(16F\	.	.	.	.
16D#X\	.	.	8g/J	.
(16E\JJ)	.	.	.	.
8F\L)	[>4A/	.	16f/LL	8dd/L
.	.	.	(16a/	.
8E\J	.	.	16Bn/	8ee/J
.	.	.	16c#X/JJ	.
4D#\	16A/LL]	.	8d/L)	(4ff/
.	16A/	.	.	.
.	16A/	.	8f/J	.
.	16Bn/JJ	.	.	.
=39	=39	=39	=39	=39
4C\	8c/L	.	(>12e/L	16ee/LL)
.	.	.	.	(16eee/
.	.	.	12a/	.
.	8A/	.	.	16gg#X/
.	.	.	12ee/J	.
.	.	.	.	16aa/JJ)
4D\	8F/	.	16ee/LL)	8bbn/L
.	.	.	(16ff/	.
.	8f/J	.	16a/	8ddd/J
.	.	.	16bn/JJ)	.
4E\	16e/LL	.	4cc/	8ccc/L
.	(16e/	.	.	.
.	16G#X/	.	.	[>8aa/J
.	16A/JJ	.	.	.
=40	=40	=40	=40	=40
4EE\	8B-/L)	.	(>4dd/	16aa/LL]
.	.	.	.	(16ddd/
.	[>8e/J	.	.	16ff#X/
.	.	.	.	16gg#X/JJ
16AA\LL	4e/]	.	4cc/)	4aa/)
(16A\	.	.	.	.
16D#X\	.	.	.	.
16E\JJ	.	.	.	.
16C\LL)	4r	.	4r	4r
(16C\	.	.	.	.
16GG#X\	.	.	.	.
16AA\JJ)	.	.	.	.
!!LO:LB:g=original
=41||	=41||	=41||	=41||	=41||
(2A\	16r	.	4r	4r
.	(16a\LL	.	.	.
.	16c\	.	.	.
.	16d\JJ	.	.	.
.	2e-X\)	.	16r	4r
.	.	.	(16cc/LL	.
.	.	.	16f#X/	.
.	.	.	16g/JJ	.
4AA\)	.	.	4a/)	16r
.	.	.	.	(16ccc\LL
.	.	.	.	16ff#X\
.	.	.	.	16gg\JJ
=42	=42	=42	=42	=42
4D\	8d\L	.	16f#X/LL	4aa\)
.	.	.	16cc/	.
.	8c\J	.	16e/	.
.	.	.	16f#/JJ	.
[<4GG\	16B-/LL	.	2g/	8gg\L
.	(16d/	.	.	.
.	16G/	.	.	8dd\
.	16A/JJ	.	.	.
16GG\LL]	8B-/)	.	.	8b-\
(16D\	.	.	.	.
16FF#X\	8r	.	.	8g\J
16GG\JJ	.	.	.	.
=43	=43	=43	=43	=43
!LO:N:vis=2.	!	!	!	!
2G\)	16r	.	4r	4r
.	(16g\LL	.	.	.
.	16B-\	.	.	.
.	16c\JJ	.	.	.
.	2d-X\)	.	16r	4r
.	.	.	(16b-/LL	.
.	.	.	16en/	.
.	.	.	16f/JJ	.
4GG\	.	.	4g/)	16r
.	.	.	.	16bb-\LL
.	.	.	.	16ee\
.	.	.	.	16ff\JJ
=44	=44	=44	=44	=44
4C\	8c\L	.	16e/LL	4gg\
.	.	.	(16b-/	.
.	8B-\J	.	16d/	.
.	.	.	16e/JJ	.
!	!LO:TX:t=P:problem=mixed beam	!	!	!
4FF\	16A/LL	.	4f/)	8ff\L
.	(16a\	.	.	.
.	16c\	.	.	8dd\
.	16d\JJ	.	.	.
16C\LL	8e\L)	.	4g/	8cc\
(16c\	.	.	.	.
16D\	8d\J	.	.	8b-\J
16E\JJ	.	.	.	.
=45	=45	=45	=45	=45
[2.F\)	2c\	.	[>4a/	16a/LL
.	.	.	.	16aa/
.	.	.	.	16ee/
.	.	.	.	16ff/JJ
.	.	.	16a/LL]	4cc/
.	.	.	16a/	.
.	.	.	16e/	.
.	.	.	16f/JJ	.
.	16B-/LL	.	8d/L	4dd/
.	(16d/	.	.	.
.	16F#X/	.	8b-/J	.
.	16G/JJ	.	.	.
=46	=46	=46	=46	=46
16F\LL]	[4c\)	.	4g/	8ee/L
16E\	.	.	.	.
16BBn\	.	.	.	8gg/J
16C\JJ	.	.	.	.
4F\	16c\LL]	.	8a/L	4ff/
.	16f\	.	.	.
.	16c\	.	8b-/J	.
.	16d\JJ	.	.	.
8FF\L	4e-X 4A\	.	4cc/	16aa/LL
.	.	.	.	16eee-X/
8FF#X\J	.	.	.	16gg/
.	.	.	.	16aa/JJ
=47	=47	=47	=47	=47
4GG\	[4d 4G\	.	16b-/LL	4bb-/
.	.	.	16dd/	.
.	.	.	16f#X/	.
.	.	.	16g/JJ	.
4AA\	16d\LL]	.	4cc/	4aa/
.	(16c\	.	.	.
.	16E\	.	.	.
.	16F#X\JJ	.	.	.
16BB-\LL	8G\L)	.	8b-/L	([>4gg/
16D\	.	.	.	.
16AA\	8f\J	.	8dd/J	.
16BB-\JJ	.	.	.	.
=48	=48	=48	=48	=48
4C\	8eL 8G\	.	8cc/L	16gg/LL]
.	.	.	.	16bb-/)
.	8d\J	.	[>8b-/J	16dd/
.	.	.	.	16ee/JJ
2FF\	8c\L	.	16b-/LL]	2ff/
.	.	.	(16b-/	.
.	8B-\J	.	16d/	.
.	.	.	16e/JJ	.
.	4A 4F\	.	4f/)	.
!!LO:LB:g=original
=49||	=49||	=49||	=49||	=49||
!	!	!	!LO:TX:rj:t=Tema.	!LO:TX:a:t=3 Var.
2.F\	2f\	.	4f/	16r
.	.	.	.	16gg#X\KL
.	.	.	.	[8aa^\J
.	.	.	4cc/	16aa\LL]
.	.	.	.	16aa\
.	.	.	.	16gg#\
.	.	.	.	16aa\JJ
.	16r	.	4dd/	4ff/
.	16A/KL	.	.	.
.	[8B-^>/J	.	.	.
=50	=50	=50	=50	=50
4C\	16.B-/LL]	.	4g/	4ee/
.	32B-/K	.	.	.
.	16.A/	.	.	.
.	32B-/JJk	.	.	.
16r	8A/L	.	8a/L	8ff\L
16E\KL	.	.	.	.
[8F^\J	8c/	.	8b-/J	8gg\
16F\LL]	8f/	.	4cc/	8aa\
16F\	.	.	.	.
16E\	[8a/J	.	.	8ee-X\J
16F\JJ	.	.	.	.
=51	=51	=51	=51	=51
4G\	8a/L]	.	4b-/	16r
.	.	.	.	16cc#X\KL
.	8g/	.	.	[8dd^\J
4A\	8f#X/	.	4a/	16dd\LL]
.	.	.	.	16dd\
.	8d/J	.	.	16cc#\
.	.	.	.	16dd\JJ
8B-\L	16r	.	4g/	8gg\L
.	16c#X/KL	.	.	.
8BB-\J	[8d^>/J	.	.	8ff\J
=52	=52	=52	=52	=52
4BBn\	16d/LL]	.	4f/	8ee\L
.	16d/	.	.	.
.	16c/	.	.	8dd\J
.	16d/JJ	.	.	.
!	!	!	!	!LO:TUP:a:problem=klamra łukowa
16r	8e\L	.	2e/	12cc\L
16BB\KL	.	.	.	.
.	.	.	.	12dd\
[8C^\J	8d\	.	.	.
.	.	.	.	12ee\
16C\LL]	8c\	.	.	12ff\
16C\	.	.	.	.
.	.	.	.	12gg\
16BB\	8B-\J	.	.	.
.	.	.	.	[12gg#X\J
16C\JJ	.	.	.	.
=53	=53	=53	=53	=53
2FF\	2A/	.	4f/	16gg#\LL]
.	.	.	.	16gg#X\J
.	.	.	.	[8aa^\J
.	.	.	4cc\	16aa\LL]
.	.	.	.	16aa\
.	.	.	.	16aa\
.	.	.	.	16aa\JJ
4F\	16r	.	4dd\	4bbn\
.	16F/KL	.	.	.
.	[8G^>/J	.	.	.
=54	=54	=54	=54	=54
4E\	16G/LL]	.	4cc\	4ccc\
.	(16G/	.	.	.
.	16F#X/	.	.	.
.	16G/JJ	.	.	.
16r	2A/)	.	8dd\L	8fff\L
16C#X\KL	.	.	.	.
[8D^\J	.	.	8ee\J	8eee\
16D\LL]	.	.	4ff\	8ddd\
16D\	.	.	.	.
16C#\	.	.	.	8aa\J
16D\JJ	.	.	.	.
=55	=55	=55	=55	=55
2.E\	8A/L	.	4ee\	16r
.	.	.	.	16gg#X\KL
.	8c/	.	.	[8aa^\J
.	8f/	.	4dd\	16aa\LL]
.	.	.	.	16aa\
.	8e/J	.	.	16gg#\
.	.	.	.	16aa\JJ
.	16r	.	4cc\	8ccc\L
.	16d#X/KL	.	.	.
.	[8e^/J	.	.	8aa\J
=56	=56	=56	=56	=56
4EE\	16e/LL]	.	4bn\	8ddd\L
.	(16e/	.	.	.
.	16d#X/	.	.	8gg#X\J
.	16e/JJ	.	.	.
16AA\LL	2c/)	.	2a\	4aa-X\
16C\	.	.	.	.
16G#X\	.	.	.	.
[16A^\JJ	.	.	.	.
16A\LL]	.	.	.	4ryy
16A\	.	.	.	.
16G#\	.	.	.	.
16A\JJ	.	.	.	.
!!LO:LB:g=original
=57||	=57||	=57||	=57||	=57||
2AA\	16r	.	4r	4r
.	16f#XKL 16B-\	.	.	.
.	[8gJ [8c\	.	.	.
.	16g]LL 16c\]	.	4ee-X\	4r
.	16g\	.	.	.
.	16f#\	.	.	.
.	[16g\JJ	.	.	.
4A\	4g] 4c\	.	4ee-\	16r
.	.	.	.	16bbn\KL
.	.	.	.	[8ccc^\J
=58	=58	=58	=58	=58
4D\	4f#X 4d\	.	4dd\	16ccc\LL]
.	.	.	.	16ccc\
.	.	.	.	16bbn\
.	.	.	.	16ccc\JJ
16r	2g 2G/	.	8g/L	8bb-X\L
16F#X\KL	.	.	.	.
[8G\J	.	.	8a/J	8aa\
16G\LL]	.	.	4b-/	8gg\
16G\	.	.	.	.
16F#X\	.	.	.	8dd\J
16G\JJ	.	.	.	.
=59	=59	=59	=59	=59
2GG\	16r	.	4r	4r
.	(16e\KL	.	.	.
.	[8fJ 8B-^\)	.	.	.
.	16f\LL]	.	4dd-X\	4r
.	16f\	.	.	.
.	16e\	.	.	.
.	[16f\JJ	.	.	.
4G\	4f] 4B-\	.	4dd-\	16r
.	.	.	.	16aa\KL
.	.	.	.	[8bb-^\J
=60	=60	=60	=60	=60
4C\	4e 4c\	.	4cc\	16bb-\LL]
.	.	.	.	16bb-\
.	.	.	.	16aa\
.	.	.	.	16bb-\JJ
16r	2f 2F/	.	8f/L	8aa\L
16E\KL	.	.	.	.
[8F\J	.	.	8g/J	8gg\
16F\LL]	.	.	4a/	8ff\
16F\	.	.	.	.
16E\	.	.	.	8dd\J
16F\JJ	.	.	.	.
=61	=61	=61	=61	=61
!LO:SIC:o:v=wytarte dźwięki	!	!	!	!
2.FF\	2A/	.	4f/	16cc\LL
.	.	.	.	16r
.	.	.	.	16gg#X\
.	.	.	.	[16aa^\JJ
.	.	.	4cc\	16aa\LL]
.	.	.	.	16aa\
.	.	.	.	16gg#\
.	.	.	.	16aa\JJ
.	16r	.	4dd\	4ff/
.	16A/KL	.	.	.
.	[8B-/J	.	.	.
=62	=62	=62	=62	=62
4C\	16B-/LL]	.	4g/	4ee\
.	16B-/	.	.	.
.	16A/	.	.	.
.	16B-/JJ	.	.	.
!	!LO:TX:t=P:problem=mixed beam	!	!	!
16r	8A/L	.	8a/L	8ff\L
16EE\KL	.	.	.	.
8FF\J	8c/	.	8b-/J	8gg\
16FF\LL	8f\	.	4cc/	8aa\
16FF#X\	.	.	.	.
16EE\	[8a\J	.	.	8ee-X\J
16FF#\JJ	.	.	.	.
=63	=63	=63	=63	=63
4GG\	8a\L]	.	4b-\	16r
.	.	.	.	16cc#X\KL
.	8g\	.	.	[8dd\J
4AA\	8f#X\	.	4a/	16dd\LL]
.	.	.	.	16dd\
.	8d\J	.	.	16cc#\
.	.	.	.	16dd\JJ
4BB-\	16r	.	4g/	8ddd\L
.	16c#X\KL	.	.	.
.	[8d\J	.	.	8gg\J
=64	=64	=64	=64	=64
4C\	16d\LL]	.	4g/	8bb-\L
.	16cn\	.	.	.
.	16Bn\	.	.	8ee\J
.	16c\JJ	.	.	.
16r	2A/	.	2f/	2ff\
16E\KL	.	.	.	.
8F\J	.	.	.	.
4FF\	.	.	.	.
!!LO:PB:g=original
=65||	=65||	=65||	=65||	=65||
!	!	!	!	!LO:TX:a:t=4 Var,
2.F\	8r	.	4a/	4cc/
.	(8A/L	.	.	.
.	8B-/	.	4g/	4b-/
.	8c/	.	.	.
.	8d/	.	[4f/	4a/
.	8B-/J	.	.	.
=66	=66	=66	=66	=66
2C\	2B-/)	.	8f/L]	8g/
.	.	.	8e/	(8cc\L
.	.	.	8d/	8dd\
.	.	.	8c/J	8ee\
4FF\	4A/	.	4a/	8ff\
.	.	.	.	8cc\J
=67	=67	=67	=67	=67
4GG\	4G/	.	8r	4b-/)
.	.	.	(8d/L	.
4AA\	4c/	.	8e/	4a/
.	.	.	8f#X/	.
4BB-\	4B-/	.	8g/	4g/
.	.	.	8d/J	.
=68	=68	=68	=68	=68
8r	(4B-/	.	2d-X/)	2f/
(8GG\L	.	.	.	.
8AA\	4A/	.	.	.
8BB-\	.	.	.	.
!LO:SIC:o:v=wytarte dźwięki	!LO:SIC:o:v=wytarte dźwięki	!	!LO:SIC:o:v=wytarte dźwięki	!LO:SIC:o:v=wytarte dźwięki
8C\	4G/	.	8c/L	4e/
8CC\J)	.	.	8B-/J	.
=69	=69	=69	=69	=69
2FF\	8F/)	.	8A/	4f/
.	(<8A/L	.	8r	.
.	8B-/	.	4g/	4b-/
.	8c/	.	.	.
4F\	8d/	.	4f/	4a/
.	8A/J	.	.	.
=70	=70	=70	=70	=70
2.E\	4e\)	.	8r	4g/
.	.	.	(8g/L	.
.	4d\	.	8a/	8gg\L
.	.	.	8bn/	8ff\J
.	8c\L	.	8cc/	[4ee\
.	8B-\J	.	8g/J	.
=71	=71	=71	=71	=71
4F\	4A/	.	4a/)	8ee\]
.	.	.	.	(8cc#X\L
4E\	4c#X\	.	4g/	8dd\
.	.	.	.	8ee\
4D\	4d\	.	4f/	8ff\
.	.	.	.	8dd\J
=72	=72	=72	=72	=72
8r	4e\	.	2.e/	4ccn/)
(8D\L	.	.	.	.
8F#X\	4d\	.	.	4bn/
8G#X\	.	.	.	.
8A\	4c\	.	.	4a/
8AA\J)	.	.	.	.
!!LO:LB:g=original
=73||	=73||	=73||	=73||	=73||
2A\	4g\	.	4ee-X/	8r
.	.	.	.	8bbn\L
.	4e-X\	.	4cc/	8ccc\
.	.	.	.	8ddd\
4AA\	[4c\	.	4a/	8eee-X\
.	.	.	.	8gg\J
=74	=74	=74	=74	=74
2.D\	8c\]	.	2a/	2ff#X\
.	(8Bn/L	.	.	.
.	8c/	.	.	.
.	8d/	.	.	.
.	8e-X/	.	4r	4ccc\
.	8F#X/J)	.	.	.
=75	=75	=75	=75	=75
2GG\	2G/	.	8g/	4bb-\
.	.	.	8a/L	.
.	.	.	8b-/	4ggg\
.	.	.	8cc/	.
4G\	[4B-/	.	8dd-X/	4ggg\
.	.	.	8f/J	.
=76	=76	=76	=76	=76
8C\L	8B-/L]	.	8e/L	8ggg\L
8BBn\	8A-X/J	.	8d/	8fff\
8C\	4G/	.	8e/	8eee\
8D\	.	.	8f/	8ddd\
8D#X\	8An/L	.	8f#X/	8ccc\
8E\J	8G/J	.	8g/J	8bb-\J
=77	=77	=77	=77	=77
2.F\	8F/L	.	4a 4c/	(2aa\
.	(8A/	.	.	.
.	8B-/	.	4r	.
.	8c/	.	.	.
.	8d/	.	4r	4r
.	8A/J	.	.	.
=78	=78	=78	=78	=78
4E\	2c/)	.	8r	2gg\)
.	.	.	8g/L	.
4F\	.	.	8a/	.
.	.	.	8b-/	.
4F#X\	8A/L	.	8cc/	4aa\
.	8c/J	.	8e-X/J	.
=79	=79	=79	=79	=79
4G\	4B-/	.	4d/	8r
.	.	.	.	8aa\L
8GG\L	8B-/L	.	8g/L	8bb-\
8AA\J	8A/	.	8f#X/J	8ccc\
4BB-\	8G/	.	4f#/	8ddd\
.	8d/J	.	.	8bb-\J
=80	=80	=80	=80	=80
8r	4c/	.	8e/L	4aa\
8BB-\L	.	.	8a/	.
8D\	2c/	.	8cc/	4gg\
8E\J	.	.	8b-/J	.
4F\	.	.	4a/	4ff\
!!LO:LB:g=original
=81||	=81||	=81||	=81||	=81||
*k[b-e-a-d-]	*k[b-e-a-d-]	*	*k[b-e-a-d-]	*k[b-e-a-d-]
!	!	!	!	!LO:TX:a:t=5 Var
4r	4r	.	4r	4f/
2F\	4A-/	.	[2f/	4cc\
.	4B-/	.	.	4dd-\
=82	=82	=82	=82	=82
2C\	4c/	.	4f/]	4g/
.	4B-/	.	4en/	8a-/L
.	.	.	.	8b-/J
4FF\	4An/	.	4e-X/	4cc/
=83	=83	=83	=83	=83
2.BB-\	4B-/	.	2.d-/	4b-/
.	4F/	.	.	4a-/
.	4G/	.	.	4g/
=84	=84	=84	=84	=84
4BBn\	4A-X/	.	4d-/	4f/
2C\	2G/	.	(8c/L	2en/
.	.	.	8d-/	.
.	.	.	8c/	.
.	.	.	8B-/J	.
=85	=85	=85	=85	=85
2F\	4A-/	.	4A-/)	4f/
.	4A-/	.	2f/	4cc\
4BB-\	4B-/	.	.	4dd-\
=86	=86	=86	=86	=86
2E-\	4d-\	.	4f/	4g/
.	8c\L	.	8e-/L	8a-/L
.	8B-\J	.	8d-/J	8b-/J
4AA-\	4A-/	.	4c/	4cc\
=87	=87	=87	=87	=87
4FF\	4A-/	.	8c/L	4ff\
.	.	.	8dn/J	.
4GG\	4G/	.	4e-/	4ee-\
4AA-\	4c/	.	4f/	4ddn\
=88	=88	=88	=88	=88
4GG\	4Bn/	.	8g/L	4ee-\
.	.	.	8f/J	.
8C\L	2c/	.	2e-/	2cc\
8BB-\	.	.	.	.
8AA-\	.	.	.	.
8GG\J	.	.	.	.
!!LO:LB:g=original
=89||	=89||	=89||	=89||	=89||
2.GG-X\	2.B-/	.	[>2.e-/	4r
.	.	.	.	4ee-\
.	.	.	.	4ee-\
=90	=90	=90	=90	=90
2FF\	8B-/L	.	8e-/L]	4an/
.	8e-/	.	8g-X/	.
.	8d-/	.	8f/	8b-\L
.	8c/	.	8e-/J	8cc\J
4BB-\	8B-/	.	4d-X/	4dd-X\
.	8An/J	.	.	.
=91	=91	=91	=91	=91
2FF-X\	2.A-X/	.	2d-/	4r
.	.	.	.	4dd-\
4r	.	.	4r	4dd-\
=92	=92	=92	=92	=92
2EE-\	8B-/L	.	8d-/L	4g/
.	8d-/	.	8f/J	.
.	8c/	.	4e-/	8a-\L
.	8F#X/J	.	.	8b-\J
4CC\	4G/	.	4en/	4cc\
=93	=93	=93	=93	=93
2FF\	2A-/	.	2.f/	4r
.	.	.	.	4cc\
4BB-\	4B-/	.	.	4dd-\
=94	=94	=94	=94	=94
4EE-\	4d-\	.	4f/	4g/
4E-\	8c\L	.	8e-/L	8a-/L
.	8B-\J	.	8d-/J	8b-/J
4AA-\	4A-/	.	4c/	4cc\
=95	=95	=95	=95	=95
4BB-\	4G/	.	2.d-/	4b-\
4FF\	4A-/	.	.	4a-/
4GG\	4B-/	.	.	4g/
=96	=96	=96	=96	=96
4C\	4En/	.	8c/L	4g/
.	.	.	8B-/J	.
2FF\	2F/	.	2A-/	2f/
!!LO:PB:g=original
=97||	=97||	=97||	=97||	=97||
!	!	!	!	!LO:TX:a:t=6.Var.
(16FF\LL	4r	.	4r	4r
16C\	.	.	.	.
16A-\	.	.	.	.
16G\JJ	.	.	.	.
4F\)	4r	.	16r	4cc\
.	.	.	(16c/LL	.
.	.	.	16a-/	.
.	.	.	16g/JJ	.
4BB-\	16r	.	4f/)	[4dd-\
.	(16F/LL	.	.	.
.	16d-/	.	.	.
.	16c/JJ	.	.	.
=98	=98	=98	=98	=98
2C\	[4B-/)	.	2en/	16dd-\LL]
.	.	.	.	(16cc\
.	.	.	.	16bb-\
.	.	.	.	16aa-\JJ
.	16B-/LL]	.	.	4gg\)
.	(16En/	.	.	.
.	16c/	.	.	.
.	16B-/JJ	.	.	.
4FF\	8A-/L)	.	[4f/	(16ff\LL
.	.	.	.	16f\
.	8An/J	.	.	16ff\
.	.	.	.	16ee-\JJ)
=99	=99	=99	=99	=99
[<2BB-\	[4B-/	.	16f/LL]	[2dd-\
.	.	.	(16d-/	.
.	.	.	16b-/	.
.	.	.	16a-/JJ	.
.	16B-/LL]	.	[>4g/)	.
!	!LO:SIC:o:v=wytarte dźwięki	!	!	!
.	(16F/	.	.	.
.	16d-/	.	.	.
.	16c/JJ	.	.	.
16BB-\LL]	[8B-/L)	.	16g/LL]	8dd-\L]
(16GG\	.	.	16f/	.
16G\	16B-/L]	.	16e-/	16ee-\L
16F\JJ	16A-/JJ	.	16d-/JJ	16ff\JJ
=100	=100	=100	=100	=100
8En\L)	4G/	.	8c/L	(16gg\LL
.	.	.	.	16ccc\
8D-\	.	.	8b-/	16ggg\
.	.	.	.	16fff\JJ
8C\	8A-/L	<	8a-/	16eeen\LL)
.	.	.	.	(16cc\
8BB-\	(<8c/	.	8en/	16aa-\
.	.	.	.	16gg\JJ
8AA-\	8dn/	.	8f/	16ff\LL)
.	.	.	.	(16dn\
8GG\J	8en/J	[[	8g/J	16cc\
.	.	.	.	16b-\JJ
=101	=101	=101	=101	=101
(16FF\LL	4f 4c\)	.	[4a-/	4a-\)
16C\	.	.	.	.
16A-\	.	.	.	.
16G\JJ)	.	.	.	.
4F\	4r	.	16a-/LL]	4r
.	.	.	(16c/	.
.	.	.	16a-/	.
.	.	.	16g/JJ)	.
4BB-\	16r	.	[4f/	4r
.	(16F/LL	.	.	.
.	16d-/	.	.	.
.	16c/JJ	.	.	.
=102	=102	=102	=102	=102
(4E-\	4B-/)	.	16f/LL]	4g/
.	.	.	(16G/	.
.	.	.	16e-/	.
.	.	.	16dn/JJ	.
16F\LL)	8A-/L	.	4d-X/)	8a-/L
(16GG\	.	.	.	.
16F-X\	8G/J	.	.	8b-/J
16E-\JJ	.	.	.	.
!	!	!	!	!LO:TX:t=P:problem=brak widocznej ligatury
4AA-\)	(16A-/LL	.	4c/	[4cc/
.	16dn/	.	.	.
.	16g/	.	.	.
.	16f/JJ)	.	.	.
!!LO:LB:g=original
=103	=103	=103	=103	=103
2.GG\	8e-\L	.	8c/L	16cc\LL]
.	.	.	.	(16cc\
.	8d-\J	.	8e-/J	16bb-\
.	.	.	.	16aa-\JJ
.	16c\LL	.	4g/	8gg\L)
.	(16G\	.	.	.
.	16B-\	.	.	8ff\
.	16A-\JJ	.	.	.
.	8G\L)	.	16g/LL	8ee-\
.	.	.	(16Bn/	.
.	8Bn\J	.	16g/	8ddn\J
.	.	.	16f/JJ	.
=104	=104	=104	=104	=104
4C\	[2c\	.	(8e-/L)	(16cc\LL
.	.	.	.	16gg\
.	.	.	8g/	16eee-\
.	.	.	.	16dddn\JJ)
(16C\LL	.	.	8ee-/	[4ccc\
16GG\	.	.	.	.
16E-\	.	.	8gg/	.
16Dn\JJ	.	.	.	.
16C\LL)	8c\]	.	8ee-/J)	8ccc\]
16BB-\	.	.	.	.
16AA-\	8r	.	8r	8r
16GGn\JJ	.	.	.	.
=105||	=105||	=105||	=105||	=105||
2GG-X\	16r	.	4r	4r
.	(16E-/LL	.	.	.
.	16e-/	.	.	.
.	16d-/JJ	.	.	.
.	8c/L)	.	4r	16r
.	.	.	.	(16ee-\LL
.	8B-/	.	.	16eee-\
.	.	.	.	16dddn\JJ
4FF\	8An/	.	16r	8ccc\L)
.	.	.	(16e-/LL	.
.	8B-/J	.	16ee-/	8bb-\J
.	.	.	16dd-/JJ	.
=106	=106	=106	=106	=106
4F\	(16c/LL	.	4cc/)	4aan\
.	16An/	.	.	.
.	16f/	.	.	.
.	16e-/JJ	.	.	.
!	!LO:TX:t=P:problem=mixed beam	!	!	!
(16BB-\LL	8d-/L)	.	8b-/L	8bb-\L
16F\	.	.	.	.
16d-\	8an\J	.	[8ff/J	8ccc\J
16c\JJ	.	.	.	.
16B-\LL	(8b-\L	.	8ff/]	8ddd-\
16F\	.	.	.	.
16D-\	8B-\J)	.	8r	8r
16BB-\JJ	.	.	.	.
=107	=107	=107	=107	=107
2FF-X\)	16r	.	4r	4r
.	(16D-/LL	.	.	.
.	16d-/	.	.	.
.	16c/JJ)	.	.	.
.	8B-/L	.	4r	16r
.	.	.	.	(16dd-\LL
.	8A-/	.	.	16ddd-\
.	.	.	.	16ccc\JJ)
4EE-\	8G/	.	16r	8bb-\L
.	.	.	(16d-/LL	.
.	8A-/J	.	16dd-/	8aa-\J
.	.	.	16cc/JJ	.
=108	=108	=108	=108	=108
8E-\L	16B-/LL	.	[4b-/)	4gg\
.	(16G/	.	.	.
8D-\	16g/	.	.	.
.	16f/JJ	.	.	.
8C\	8e-/L)	.	16b-/LL]	8aa-\L
.	.	.	(16a-/	.
8AA-\J	8a-J 8c/	.	16gg/	8bb-\J
.	.	.	16ff/JJ	.
4CC\	4g 4c/	.	4een/)	16ccc\LL
.	.	.	.	(16cc\
.	.	.	.	16aa-\
.	.	.	.	16gg\JJ
!!LO:LB:g=original
=109	=109	=109	=109	=109
(16FF\LL	4a- 4c/	.	4ff\	8ff\)
16C\	.	.	.	.
16A-\	.	.	.	8r
16G\JJ	.	.	.	.
4F\)	4r	.	16cc/LL	4cc\
.	.	.	(16c/	.
.	.	.	16a-/	.
.	.	.	16g/JJ	.
4BB-\	16r	.	[4f/)	4dd-\
.	(16F/LL	.	.	.
.	16d-/	.	.	.
.	16c/JJ	.	.	.
=110	=110	=110	=110	=110
4E-\	4B-/)	.	16f/LL]	4g/
.	.	.	(16G/	.
.	.	.	16e-/	.
.	.	.	16dn/JJ	.
16F\LL	8A-/L	.	4d-X/)	8a-/L
(16GG\	.	.	.	.
16F-X\	8G/J	.	.	8b-/J
16E-\JJ)	.	.	.	.
4AA-\	16A-/LL	.	4c/	4cc/
.	(<16c/	.	.	.
.	16b-/	.	.	.
.	16a-/JJ	.	.	.
=111	=111	=111	=111	=111
!	!LO:TX:t=P:problem=mixed beam	!	!LO:TX:t=P:problem=4/4 w takcie poradziłem sobie "przednutkami po"	!
2BB-\	8g\L)	.	4B-/	16dd-/LL
.	.	.	.	(16dd-/
.	8f\	.	.	16bb-/
.	.	.	.	16aa-/JJ
.	8d-\	.	(4d-/	8gg/L)
.	8G/J	.	.	[8ff/J
.	.	.	16qqd-/LL)	.
.	.	.	(16qqd-/	.
.	.	.	16qqb-/	.
.	.	.	16qqa-/JJ	.
4C\	16G/LL	.	4g/)	8ff/L]
.	(16C/	.	.	.
.	16c/	.	.	8een/J
.	16B-/JJ	.	.	.
=112	=112	=112	=112	=112
[4FF\	8A-/L)	.	8f/L	16ff\LL
.	.	.	.	(16cc\
.	8d-/J	.	8a-/J	16aa-\
.	.	.	.	16gg\JJ
16FF\LL]	2c/	.	2a-/	2ff\)
(16C\	.	.	.	.
16A-\	.	.	.	.
16G\JJ	.	.	.	.
4F\)	.	.	.	.
=113||	=113||	=113||	=113||	=113||
!	!	!	!	!LO:TX:a:t=7. Var.
2.r	2.r	.	2.r	4r
.	.	.	.	4ccc\
.	.	.	.	16qqbb-/LL
.	.	.	.	16qqccc/JJ
.	.	.	.	4ddd-\
=114	=114	=114	=114	=114
2.r	2.r	.	4r	4ff\
.	.	.	4cc\	(8gg'\L
.	.	.	.	8aa-'\J)
.	.	.	(16qqb-/LL	.
.	.	.	16qqcc/JJ	.
.	.	.	(4dd-\)	(4ccc\
=115	=115	=115	=115	=115
2.r	4r	.	4f/)	8bb-\L)
.	.	.	.	8aa-\
.	4c\	.	(8g'/L	8gg\
.	.	.	8a-'/J)	8ff\J
.	(<16qqB-/LL	.	.	.
.	16qqc/JJ	.	.	.
.	(4d-\)	.	[4b-/	4een\
!!LO:LB:g=original
=116	=116	=116	=116	=116
4r	4F/)	.	8b-/L]	4ff\
.	.	.	8a-/	.
!LO:SIC:o:v=wytarte dźwięki	!	!	!	!
4C\	(8G'/L	.	8g/	4cc\
.	8A-'/J)	.	8f/J	.
16qqBB-\LL	.	.	.	.
16qqC\JJ	.	.	.	.
4D-\	[4B-/	.	4en/	4r
=117	=117	=117	=117	=117
!LO:SIC:o:v=wytarte dźwięki	!	!	!	!
4FF\	8B-/L]	.	4f/	4r
.	8A-/	.	.	.
(8GG'\L	8G/	.	4c/	4ccc\
8AA-'\J)	8F/J	.	.	.
.	.	.	.	16qqbb-/LL
.	.	.	.	16qqccc/JJ
[4BB-\	4En/	.	4r	(4ddd-\
=118	=118	=118	=118	=118
8BB-\L]	4F/	.	4r	4ccc\)
8AA-\	.	.	.	.
8GG\	4C/	.	4cc\	(8bb-'\L
8FF\J	.	.	.	8aa-'\J)
4EEn\	4r	.	4dd-\	[4gg\
=119	=119	=119	=119	=119
8FF\L	4r	.	4cc\	8gg\L]
8AA-\	.	.	.	8aa-\
8Dn\	4dn\	.	8b-\L	8gg\
8F\	.	.	8a-\J	8ff\
8G\	4e-\	.	4g/	8ee-\
8GG\J	.	.	.	8ddn\J
=120	=120	=120	=120	=120
2G\	4c\	.	8g/L	4ee-\
.	.	.	8a-/	.
.	8e-\L	.	8g/	(4bn\
.	8d-\J	.	8f/	.
4C\	4c\	.	8e-/	4cc\)
.	.	.	8dn/J	.
=121||	=121||	=121||	=121||	=121||
2.G-X\	2c\	.	[2.e-/	4r
.	.	.	.	4ccc\
.	.	.	.	16qqbb-/LL
.	.	.	.	16qqccc/JJ
.	4B-/	.	.	4ddd-\
=122	=122	=122	=122	=122
2F\	4An/	.	8e-/]	(4eee-\
.	.	.	8r	.
.	4e-/	.	(4cc\	8gg'\L
.	.	.	.	8aan'\J)
4BB-\	4d-/	.	4dd-\)	4bb-\
=123	=123	=123	=123	=123
*	*	*	*^	*
2.F-X\	4d-/	.	2.r	4ee-\	4r
.	4G/	.	.	4r	4bb-\
.	.	.	.	.	(16qqaa-/LL
.	.	.	.	.	16qqbb-/JJ
.	4A-/	.	.	4r	4ccc\)
*	*	*	*v	*v	*
!!LO:PB:g=original
=124	=124	=124	=124	=124
2E-\	4B-/	.	4r	((4ddd-\
.	4d-/	.	4b-\	8ff\L)
.	.	.	.	8gg'\J)
8AA-\L	8c/L	.	4cc\	4aa-\
8GG\J	8B-/J	.	.	.
=125	=125	=125	=125	=125
2FF\	8A-/L	.	2cc\	4r
.	8B-/	.	.	.
.	8A-/	.	.	4ccc\
.	8G/	.	.	.
.	.	.	.	16qqbb-/LL
.	.	.	.	16qqccc/JJ
4BB-\	8F/	.	4b-\	(4ddd-\
.	8f/J	.	.	.
=126	=126	=126	=126	=126
4D-\	8B-\L	.	4r	4ff\)
.	8f\J	.	.	.
4BB-\	4en\	.	4cc\	(8gg'\L
.	.	.	.	8aa-'\J)
4GG\	8f\L	.	4dd-\	[4bb-\
.	8B-\J	.	.	.
=127	=127	=127	=127	=127
4AA-\	4c\	.	4f/	8bb-\L]
.	.	.	.	8aa-\
4BB-\	4d-\	.	8g/L	8gg\
.	.	.	8a-/J	8ff\J
4C\	8c\L	.	4b-/	4een\
.	8G\J	.	.	.
=128	=128	=128	=128	=128
2.FF\	8d-\L	.	8b-/L	4ff\
.	8c\	.	8a-/	.
.	.	.	.	32qqgg/LLL
.	.	.	.	32qqaa-/
.	.	.	.	32qqbb-/
.	.	.	.	32qqccc/
.	.	.	.	32qqddd-/
.	.	.	.	32qqeee-/JJJ
.	8B-\	.	8g/	4fff\
.	8c\J	.	8a-/J	.
.	4A-/	.	4f/	4r
=129||	=129||	=129||	=129||	=129||
*k[b-]	*k[b-]	*	*k[b-]	*k[b-]
!	!	!	!	!LO:TX:a:t=Rasek
!	!	!	!	!LO:TX:b:t=Frur.
!	!	!	!	!LO:TX:a:t=8 Var.
4r	4r	.	4r	[2.cc\
[2C [2FF\	4a 4c\	.	4cc\	.
.	4b- 4c\	.	4dd\	.
=130	=130	=130	=130	=130
!	!	!	!	!LO:TX:a:t=Vivo.
2.C] 2.FF\]	4a 4c\	.	4cc\	8cc\L]
.	.	.	.	(8dd'\
.	4g 4c\	.	4b-\	8ee'\
.	.	.	.	8ff'\
.	4B-\	.	4g\	8gg'\
.	.	.	.	8ccc'\J)
!!LO:LB:g=original
=131	=131	=131	=131	=131
2.C 2.FF\	8A'/L	.	8f'/L	(4ccc\
.	8B-'/	.	8g'/	.
.	8c'/	.	8a'/	4bb-\
.	8d'/	.	8b-'/	.
.	8e'/	.	8cc'/	4aa\)
.	8f'/J	.	8dd'/J	.
=132	=132	=132	=132	=132
8C'\L	8g/L	.	8ee\L	([2gg\
8D'\	8f/J	.	8dd\	.
8E'\	2e/	.	8cc\	.
8F'\	.	.	8bn\J	.
8G'\	.	.	4b-X\	8gg\L]
8c'\J	.	.	.	8cc\J)
=133	=133	=133	=133	=133
4r	4f\	.	4a\	[2.cc\
[2C [2FF\	4a 4c\	.	4cc\	.
.	4b- 4c\	.	4dd\	.
=134	=134	=134	=134	=134
2.C] 2.FF\]	4a 4c\	.	4cc\	8cc\L]
.	.	.	.	(8dd'\
.	4g 4c\	.	4b-\	8ee'\
.	.	.	.	8ff'\
!	!LO:TX:t=P:problem=mixed beam	!	!	!
.	8f\L	.	8a/L	8aa'\
.	8A/J	.	8d#X/J	8ccc'\J)
=135	=135	=135	=135	=135
2.EE\	8G#X'/L	.	8e'/L	4ddd#X\
.	8A'/	.	8f#X'/	.
.	8Bn'/	.	8g'/	4eee\
.	8c'/	.	8a'/	.
.	8d'/	.	8bn'/	4ggg#X\
.	8e'/J	.	8cc'/J	.
=136	=136	=136	=136	=136
8AA'\L	2.c/	.	2a/	[<2.aaa\
8BBn'\	.	.	.	.
8C'\	.	.	.	.
8D'\	.	.	.	.
8E'\	.	.	4ryy	.
8A'\J	.	.	.	.
=137||	=137||	=137||	=137||	=137||
2AA\	2.a 2.c\	.	4ee-X\	8aaa\L]
.	.	.	.	(8eee-X'\
.	.	.	4gg\	8ddd'\
.	.	.	.	8ccc'\
4D\	.	.	4ff#X\	8bb-'\
.	.	.	.	8aa'\J)
!!LO:LB:g=original
=138	=138	=138	=138	=138
2.GG\	4b- 4B-\	.	8gg\L	(<4gg\
.	.	.	8dd\	.
.	4g\	.	8cc\	4ggg\)
.	.	.	8b-\	.
.	4d\	.	8a\	4bb-\
.	.	.	8g\J	.
=139	=139	=139	=139	=139
2GG\	8g\L	.	4g\	(2ddd-X\
.	8d-X\	.	.	.
.	8c\	.	4ff\	.
.	8B-\	.	.	.
4C\	8A\	.	4ee\	8ccc\L
.	8G\J	.	.	8bb-\J)
=140	=140	=140	=140	=140
4FF\	4A\	.	8ee\L	(4aa\
.	.	.	8dd#X\	.
4EE\	2G/	.	8cc\	4ccc\)
.	.	.	8b-\	.
4C\	.	.	8a\	[4cc^<\
.	.	.	8g\J	.
=141	=141	=141	=141	=141
4r	4F/	.	4a\	2.cc\_
[2C [2FF\	4a 4c\	.	4cc\	.
.	4b- 4c\	.	4dd\	.
=142	=142	=142	=142	=142
2.C] 2.FF\]	4a 4c\	.	4cc\	8cc\L]
.	.	.	.	(8dd'\
.	4c/	.	4b-\	8ee'\
.	.	.	.	8ff'\
.	4B-/	.	4g/	8gg'\
.	.	.	.	8ccc'\J)
=143	=143	=143	=143	=143
2C 2FF\	8G/L	.	8e/L	4ccc#X\
.	8A/	.	8f/	.
.	8B-/	.	8g/	(<4ddd\
.	8c/	.	8a/	.
4ryy	8d/	.	8b-/	4eee\)
.	8e/J	.	8cc/J	.
=144	=144	=144	=144	=144
8FF/L	2.c/	.	2.a/	2.fff\
8GG/	.	.	.	.
8AA/	.	.	.	.
8C/J	.	.	.	.
4F\	.	.	.	.
!!LO:LB:g=original
=145||	=145||	=145||	=145||	=145||
*M3/4	*M3/4	*	*M3/4	*M3/4
!	!LO:TUP:a:problem=klamra łukowa	!	!	!LO:TX:a:t=9 Var.
2.F\	12Bn\L	.	2a/	8r
.	12c\	.	.	.
.	.	.	.	(8ff/
.	12c\J	.	.	.
!	!LO:TUP:a:problem=klamra łukowa	!	!	!
.	12cL 12B\	.	.	(4fff\)
.	12c\	.	.	.
.	12c\J	.	.	.
!	!LO:TUP:a:problem=klamra łukowa	!	!	!
.	12c#X\L	.	4b-/	8eee\L)
.	12d\	.	.	.
.	.	.	.	8ddd\J
.	12d\J	.	.	.
=146	=146	=146	=146	=146
2F\	12d#X\L	.	4cc\	8ccc\L
.	12e\	.	.	.
.	.	.	.	8gg\
.	12e\J	.	.	.
.	12f#X\L	.	4ee\	8aa\
.	12g\	.	.	.
.	.	.	.	8bb-\
.	12g\J	.	.	.
4FF\	12g#X\L	.	4ee-X\	8ddd\
.	12a\	.	.	.
.	.	.	.	8ccc\J
.	12a\J	.	.	.
=147	=147	=147	=147	=147
!	!	!	!LO:TUP:a	!
4GG\	8b-\L	.	(12cc#X\L	(8ccc\L
.	.	.	12dd\)	.
.	8g\J	.	.	8bb-\
.	.	.	12dd\J	.
4AA\	12c#X\L	.	8cc#\L	8aa\
.	12d\	.	.	.
.	.	.	8a\J	8ff#X\)
.	12d\J	.	.	.
4BB-\	8d\L	.	(12f#X\L	(8aa\
.	.	.	12g\)	.
.	8B-\J	.	.	8gg\J
.	.	.	12g\J	.
=148	=148	=148	=148	=148
4BBn\	(12F#X/L	.	(8g\L	8ffn\L
.	12G/)	.	.	.
!	!	!	!LO:TX:a:t=o	!
.	.	.	8dd\J)	8dd\J)
.	12G/J	.	.	.
2C\	(12G/L	.	8dd\L	4ee\
.	12A/	.	.	.
.	.	.	(8cc\	.
.	12B-/J	.	.	.
.	12c/L	.	8b-\	(4ddd\
.	12d/	.	.	.
.	.	.	8g#X\J)	.
.	12e/J)	.	.	.
=149	=149	=149	=149	=149
*	*Xtuplet	*	*	*
!	!LO:TUP:a:problem=klamra łukowa	!	!	!
2F\	12f\L	.	4a/	8ccc\L)
.	12c\	.	.	.
.	.	.	.	(8ff\J
.	12c\J	.	.	.
.	12Bn\L	.	4a/	4fff\)
.	12c\	.	.	.
.	12c\J	.	.	.
4ryy	12c#X\L	.	4b-/	8eee\L
.	12d\	.	.	.
.	.	.	.	8ddd\J
.	12d\J	.	.	.
!!LO:PB:g=original
=150	=150	=150	=150	=150
!	!LO:TUP:a:problem=klamra łukowa	!	!	!
2E\	12d#X\L	.	4ee 4cc\	8ccc\L
.	12e\	.	.	.
.	.	.	.	8ff#X\J
.	12e\J	.	.	.
*	*	*	*Xtuplet	*Xtuplet
!	!	!	!LO:TUP:a:problem=klamra łukowa	!
.	4g 4c\	.	12dd#X\L	12bbn\L
.	.	.	12ee\	12ccc\
.	.	.	12ee\J	12eee\J
!	!	!	!LO:TUP:a:problem=klamra łukowa	!
4D\	4a 4c\	.	12ee\L	8ggg\L
.	.	.	12ff\	.
.	.	.	.	8fff\J
.	.	.	12aa\J	.
=151	=151	=151	=151	=151
!	!	!	!LO:TUP:a:problem=klamra łukowa	!
2E\	4e\	.	12gg\L	8eee\L
.	.	.	12gg#X\	.
.	.	.	.	8ddd\
.	.	.	12gg#\J	.
!	!LO:TUP:a:problem=klamra łukowa	!	!	!
.	12d#X\L	.	8aa\L	8ccc\
.	12e\	.	.	.
.	.	.	8cc\J	8aa\J
.	12e\J	.	.	.
4EE\	12G\L	.	8ee\L	8ccc\L
.	12G#X\	.	.	.
!	!	!	!LO:SIC:o:s:v:t=belka przez kreskę taktową	!LO:SIC:o:s:v:t=belka przez kreskę taktową
.	.	.	8dd\	8bbn\
.	12G#\J	.	.	.
=152	=152	=152	=152	=152
2.AA\	12A\L	.	8cc\	8aa\
.	12Bn\	.	.	.
.	.	.	8a\J	8ee\J
.	12c\J	.	.	.
.	12e\L	.	8cc\L	4aa\
.	12f#X\	.	.	.
.	.	.	8bn\J	.
.	12g#X\J	.	.	.
.	12a\L	.	4a\	4r
.	12A\	.	.	.
.	12c\J	.	.	.
=153||	=153||	=153||	=153||	=153||
*Xtuplet	*	*	*	*
12G#X\L	4gn\	.	4ee-X\	8r
12A\	.	.	.	.
.	.	.	.	(8bbn\L
12A\J	.	.	.	.
12G#\L	4e-X\	.	4cc\	8ccc\
12A\	.	.	.	.
.	.	.	.	8ggg\
12A\J	.	.	.	.
12G#\L	4c\	.	8aaL 8a\	8fff\
12A\	.	.	.	.
.	.	.	8ggJ 8g\	8eee-X\J
12A\J	.	.	.	.
=154	=154	=154	=154	=154
12C#X\L	4d\	.	4ff#X\	8ddd\L
12D\	.	.	.	.
.	.	.	.	8aa\
12D\J	.	.	.	.
4GG\	8d\L	.	12ff#\L	8bb-\
.	.	.	12gg\	.
.	8A\	.	.	8ccc\
.	.	.	12gg\J	.
4ryy	8B-\	.	12ff#\L	8ddd\J)
.	.	.	12gg\	.
.	8c\J	.	.	8r
.	.	.	12ff#\J	.
=155	=155	=155	=155	=155
12F#X\L	2d-X\	.	2ffn\	8r
12G\	.	.	.	.
.	.	.	.	8aa\L
12G\J	.	.	.	.
12F#\L	.	.	.	8bb-\
12G\	.	.	.	.
.	.	.	.	8fff\
12G\J	.	.	.	.
12F#\L	4B-\	.	8gg\L	8eee-X\
12G\	.	.	.	.
.	.	.	8ff\J	8ddd-X\J
12G\J	.	.	.	.
!!LO:LB:g=original
=156	=156	=156	=156	=156
12BBn\L	4c\	.	12ee\L	8ccc\L
12C\	.	.	12dd\	.
.	.	.	.	8gg\
12C\J	.	.	12dd-X\J	.
4F\	12Bn\L	.	8cc\L	8aa\
.	12c\	.	.	.
.	.	.	8g\	8bb-\
.	12c\J	.	.	.
12D#X\L	4c\	.	8a\	8ccc\J
12E\	.	.	.	.
.	.	.	8b-\J	8r
12E\J	.	.	.	.
=157	=157	=157	=157	=157
2.F\	12Bn\L	.	4a\	4r
.	12c\	.	.	.
.	12c\J	.	.	.
.	12B\L	.	4a\	4fff\
.	12c\	.	.	.
.	12c\J	.	.	.
.	12c#X\L	.	4b-\	8eee\L
.	12d\	.	.	.
.	.	.	.	8ddd\J
.	12d\J	.	.	.
=158	=158	=158	=158	=158
4F\	12d#X\L	.	4cc\	8ccc\L
.	12e\	.	.	.
.	.	.	.	8gg\
.	12e\J	.	.	.
4FF\	12f#X\L	.	4ee\	8aa\
.	12g\	.	.	.
.	.	.	.	8bb-\
.	12g\J	.	.	.
4FF#X\	12g#X\L	.	4ee-X\	8ddd\
.	12a\	.	.	.
.	.	.	.	8ccc\J
.	12a\J	.	.	.
=159	=159	=159	=159	=159
4GG\	4b-\	.	12cc#X\L	8ccc\L
.	.	.	12dd\	.
.	.	.	.	8bb-\
.	.	.	12dd\J	.
4AA\	12c#X\L	.	8ccn\L	8aa\
.	12d\	.	.	.
.	.	.	8a\J	8ff#X\J
.	12d\J	.	.	.
!	!	!	!	!LO:SIC:o:s:v:t=belka przez kreskę taktową
4BB-\	4d\	.	12f#X\L	8aa\L
.	.	.	12g\	.
.	.	.	.	8gg\
.	.	.	12g\J	.
=160	=160	=160	=160	=160
4C\	12Bn\L	.	8a\L	8ffn\
.	12c\	.	.	.
.	.	.	8b-\J	8eeJ 8cc\
.	12c\J	.	.	.
2FF\	12c\L	.	8a/L	2ff\
.	12c\	.	.	.
.	.	.	8g/J	.
.	12B-X\J	.	.	.
.	4A\	.	4f/	.
!!LO:LB:g=original
=161||	=161||	=161||	=161||	=161||
*	*	*	*	*M6/8
!	!	!	!	!LO:TX:a:t=10 Var.
4r	(<2.F/	.	[4.f/	8r
.	.	.	.	8cccL 8ff 8a/
8r	.	.	.	8dddJ 8ff 8b-/
4r	.	.	8f/L]	8cccL 8ff 8a/
.	.	.	8cc 8f 8A/	8ff/
8r	.	.	8ddJ 8f 8B-/	8bb-/J
=162	=162	=162	=162	=162
*	*	*	*^	*^
8r	4.c\)	.	4.cc/	8e\	4.gg/	8ff\L
!LO:TX:a:t=bis	!	!	!	!	!	!
8c\L	.	.	.	8r	.	(>16ee\L
.	.	.	.	.	.	16dd\)
8C'\J	.	.	.	8r	.	16cc\
.	.	.	.	.	.	16b-\JJ
8F\L	4.c 4.F\	.	[4.a/	8g\L	8aaL 8a\	4.ryy
8FF'\J	.	.	.	16f\L	(8bb- 8b-\	.
.	.	.	.	16e\J	.	.
!LO:TX:a:t=dreo	!	!	!	!	!	!
8A 8C 8FF\	.	.	.	8e-X\J	[8cccJ 8cc\	.
*	*	*	*v	*v	*	*
*	*	*	*	*v	*v
=163	=163	=163	=163	=163
16BB-'\LL	8d\L	.	8a]L 8d/	8ccc]L 8cc\)
16C'\	.	.	.	.
16D'\	8f\	.	8b-/	8bb- 8b-\
16E'\	.	.	.	.
16En'\	8d\J	.	8d/J	8aaJ 8cc 8d\
16F#X'\JJ	.	.	.	.
4.G\	16G'/LL	.	8d/L	4gg 4b- 4d 4G/
.	16A'/	.	.	.
.	16B-'/	.	8g/	.
.	16Bn'/	.	.	.
.	16c'/	.	8f/J	[8gg 8g\
.	16d'/JJ	.	.	.
=164	=164	=164	=164	=164
4.C\	8c\L	.	16e'/LL	8gg\L]
.	.	.	16f'/	.
.	8e\	.	16g'/	(8ee\
.	.	.	16a'/	.
.	8fJ 8G\	.	16b-'/	8dd\J)
.	.	.	16bn'/JJ	.
!	!LO:N:vis=8	!	!	!
8C\L	8.fL 8.G 8.C/	.	(8.cc\L	16cc'\LL
.	.	.	.	16dd'\
8GG\	.	.	.	16ee'\
.	16e/L	.	16bn\K	16ff'\
8CC\J	16d/	.	8b-X\J	16gg'\
.	16c/JJ	.	.	16gg#X'\JJ
=165	=165	=165	=165	=165
8FF\	8c 8F/	.	8a\)	8aa\
8r	8r	.	[4f/	8cccL 8ff 8a/
8r	8r	.	.	8dddJ 8ff/
4r	[4.F/	.	8f/L]	8cccL 8ff 8a/
.	.	.	8cc 8f 8A/	16aa/L
.	.	.	.	16gg/J
8r	.	.	8ddJ 8f 8B-/	8ff/J
=166	=166	=166	=166	=166
8r	8F/L]	.	8ccL 8f 8A/	8ff\
8AA/L	8c 8F/	.	16b-/L	4fff\
.	.	.	16g/J	.
8BB-/J	8dJ 8F/	.	8f/J	.
4.EE\	4.c 4.G/	.	16cc\LL	8ggg\L
.	.	.	16bn\	.
.	.	.	16cc\	16eee\L
.	.	.	16dd\	16ddd\J
.	.	.	16ee\	8ccc\J
.	.	.	16gg\JJ	.
!!LO:LB:g=original
=167	=167	=167	=167	=167
16FF'\LL	4.c 4.A/	.	8aa\L	4aa\
16GG'\	.	.	.	.
16AA'\	.	.	8gg\	.
16BBn'\	.	.	.	.
16C'\	.	.	8ff\J	[8aaa\
16D'\JJ	.	.	.	.
4.E'\	16r	.	8ee\L	8.aaa]L 8.cc\
.	16F#X'/LL	.	.	.
.	16G#X'/	.	8cc\	.
!	!	!	!	!LO:N:vis=8
.	16A'/	.	.	16eee\K
.	16Bn'/	.	8a\J	8ddd\J
.	16c'/JJ	.	.	.
=168	=168	=168	=168	=168
4E\	4.d\	.	16r	8ddd\L
.	.	.	16e/LL	.
.	.	.	16f/	8ccc\
.	.	.	16f#X/	.
8EE\	.	.	16g/	8bbn\J
.	.	.	16g#X/JJ	.
16AA'\LL	8c\	.	8.a/	8aa\
16BBn'\	.	.	.	.
16C'\	8r	.	.	8r
16D'\	.	.	16r	.
16E'\	8r	.	8r	8r
16G#X'\JJ	.	.	.	.
=169||	=169||	=169||	=169||	=169||
4.A\	2ryy	.	4.ryy	8r
.	.	.	.	8eee-XL 8gg 8cc\
.	.	.	.	8eee-J 8gg 8cc\
4.AA\	.	.	8r	8eee- 8gg 8cc\
.	8cL 8A/	.	8ee-XL 8g/	[4aa^\
.	8cJ 8A/	.	8ee-J 8g/	.
=170	=170	=170	=170	=170
8D\	4.d 4.A/	.	4.dd 4.f#X/	8aa\]
4DD^\	.	.	.	16ff#XLL 16a\
.	.	.	.	16ggJ 16b-\
.	.	.	.	8aaJ 8cc\
8G\	8G/L	.	8ddL 8g/	4.bb- 4.b- 4.d 4.G\
4GG\	16B-/L	.	16g/L	.
.	16c/J	.	16a/J	.
.	8d/J	.	8b-/J	.
=171	=171	=171	=171	=171
4.G\	4r	.	4r	8r
.	.	.	.	8ddd-XL 8ff 8b-\
.	8r	.	8r	8ddd-J 8ff 8b-\
4.GG\	8r	.	8r	8ddd- 8ff 8b-\
.	8fL 8G/	.	8dd-XL 8B-/	[4gg 4g^\
.	8fJ 8G/	.	8dd-J 8B-/	.
=172	=172	=172	=172	=172
8C\	4.e 4.G/	.	4.cc 4.c/	8gg]L 8g\
4CC^\	.	.	.	16eeL 16g\
.	.	.	.	16ffJ 16a\
.	.	.	.	8ggJ 8b-\
8F\	8fL 8A/	.	8ccL 8f/	4.aa 4.a 4.f\
4FF^\	16A/L	.	16f/L	.
.	16B-/J	.	16g/J	.
.	8c/J	.	8a/J	.
!!LO:PB:g=original
=173	=173	=173	=173	=173
4r	(<2.F/	.	[4.f/	8r
.	.	.	.	8cccL 8ff 8a/
8r	.	.	.	8dddJ 8ff 8b-/
4r	.	.	8f/L]	8cccL 8ff 8a/
.	.	.	8cc 8f 8A/	8ff/
8r	.	.	8ddJ 8f 8B-/	8bb-/J
=174	=174	=174	=174	=174
*	*	*	*^	*^
!LO:N:vis=16	!	!	!	!	!	!
8r	4.c\)	.	4.cc\	4.ryy	4.gg/	8ff\L
8c\L	.	.	.	.	.	16ee\L
.	.	.	.	.	.	16dd\
!	!	!	!	!	!LO:N:vis=8(dopisane ołówkiem)	!
8C\J	.	.	.	.	.	16cc\
.	.	.	.	.	.	16b-\JJ
8F\L	4c\	.	[4.a/	8g\L	8aaL 8a\	4.ryy
8FF\	.	.	.	16f\L	8bb- 8b-\	.
.	.	.	.	16e\J	.	.
!LO:SIC:o:s:v=skreślone dwa takty	!LO:SIC:o:s:v=skreślone dwa takty	!	!	!LO:SIC:o:s:v=skreślone dwa takty	!LO:SIC:o:s:v=skreślone dwa takty	!
8FF#X\J	8c\	.	.	8e-X\J	[8cccJ 8cc\	.
*	*	*	*	*	*v	*v
=175||	=175||	=175||	=175||	=175||	=175||
16GG'\LL	8G\L	.	8a/L]	4.d\	8ccc\L]
16AA'\	.	.	.	.	.
16BB-'\	8d\	.	8g/	.	8bb-\
16C'\	.	.	.	.	.
16D'\	8c\J	.	8a/J	.	8aa\J
16F#X'\JJ	.	.	.	.	.
4.G\	16B-\LL	.	8b-/	4.ryy	8ggL 8b- 8d 8G/
.	16A\	.	.	.	.
.	16B-\	.	[4g/	.	8ggg/
.	16c\	.	.	.	.
.	16d\	.	.	.	16fff/L
.	16fn\JJ	.	.	.	16ddd/JJ
*	*	*	*v	*v	*
!!LO:LB:g=original
=176	=176	=176	=176	=176
4.C\	4e\	.	16g/LL]	8ccc\L
.	.	.	16a/	.
.	.	.	16b-/	8bb-\
.	.	.	16cc/	.
.	8b- 8c\	.	16dd/	8gg\J
.	.	.	16ee/JJ	.
4.FF\	4.a 4.c\	.	4.ff\	4.ff\
=177||	=177||	=177||	=177||	=177||
*k[b-e-a-d-]	*k[b-e-a-d-]	*	*k[b-e-a-d-]	*k[b-e-a-d-]
!	!	!	!	!LO:TX:a:t=11 Var.
[<2.F\	4r	.	8r	2.r
.	.	.	8aa-\L	.
.	4c\	.	8gg\	.
.	.	.	8ff\	.
.	4d-\	.	8een\	.
.	.	.	8ff\J	.
=178	=178	=178	=178	=178
2.F\]	4G/	.	8ee-X\L	2.r
.	.	.	8dd-\	.
.	8A-/L	.	8cc\	.
.	8B-/J	.	8b-\	.
.	4c/	.	8a-\	.
.	.	.	8en\J	.
=179	=179	=179	=179	=179
2.D-\	4B-/	.	[2.f\	8r
.	.	.	.	8een\L
.	4A-/	.	.	8ff\
.	.	.	.	8gg\
.	4G/	.	.	8aa-\
.	.	.	.	8bb-\J
=180	=180	=180	=180	=180
8D-\L	4F/	.	8f\L]	4bbn\
8GG\	.	.	8g\J	.
8C\	2En/	.	2g 2c/	[2ccct\
8BB-\	.	.	.	.
8AA-\	.	.	.	.
8GG\J	.	.	.	.
=181	=181	=181	=181	=181
!	!	!	!LO:TX:t=P:problem=mixed beam	!
2FF\	4F/	.	8a-/L	4ccc\]
.	.	.	8aa-\	.
.	4c\	.	8gg\	4ccc\
.	.	.	8ff\	.
4BB-\	4d-\	.	8een\	4bb-\
.	.	.	8ff\J	.
!!LO:LB:g=original
=182	=182	=182	=182	=182
*k[b-]	*k[b-]	*	*k[b-]	*k[b-]
!	!	!	!	!LO:TX:t=P:problem=czy aby nie błędnie zapisany tylko jeden bemol przy kluczu?
4EE\	4G/	.	8ff\L	2ddd\
.	.	.	8b-\	.
4E\	8A/L	.	8cc\	.
.	8B-/J	.	8dd\	.
4AA\	4c\	.	8ee\	4ccc\
.	.	.	8a\J	.
=183	=183	=183	=183	=183
[2.GG\	4e\	.	4cc\	8r
.	.	.	.	8ccc\L
.	4d\	.	4f\	8bb-\
.	.	.	.	8aa\
.	4c\	.	4a\	8ff\
.	.	.	.	8ff#X\J
=184	=184	=184	=184	=184
4GG\]	4Bn\	.	8g\L	8gg\L
.	.	.	8f\J	8dd\J
8C\L	2c\	.	2e\	2ee\
8BB-\	.	.	.	.
8AA\	.	.	.	.
8GG\J	.	.	.	.
=185||	=185||	=185||	=185||	=185||
2.GG-X\	4r	.	8r	2r
.	.	.	8b-\L	.
.	4e\	.	8a\	.
.	.	.	8g-X\	.
.	4e\	.	8f\	[4ee\
.	.	.	8g-\J	.
=186	=186	=186	=186	=186
2FF\	4An\	.	4g-X\	8ee\L]
.	.	.	.	8eee\
.	8B-\L	.	[4f\	8ddd\
.	8c\J	.	.	8ccc\
4BB-\	4d\	.	8f\]	8bb-\
.	.	.	8r	8ccc\J
=187	=187	=187	=187	=187
!	!	!	!	!LO:N:vis=2
2.FF-X\	4r	.	8r	[2.ddd\
.	.	.	8cc\L	.
.	4d\	.	8b-\	.
.	.	.	8a\	.
.	4d\	.	8g\	.
.	.	.	8a\J	.
=188	=188	=188	=188	=188
2EE\	4G/	.	4b-\	8ddd\L]
.	.	.	.	8ddd\
.	8A/L	.	4cc\	8ccc\
.	8B-/J	.	.	8bb-\
4EEn\	4c/	.	8cc\L	8aa\
.	.	.	8b-\J	(8gg\J
!!LO:LB:g=original
=189	=189	=189	=189	=189
!LO:N:vis=2.	!	!	!	!
!LO:TX:t=P:problem=as przy kluczu	!LO:TX:t=P:problem=b i as przy kluczu	!	!	!
2FF\	4F/	.	8a\L	8ff\)
.	.	.	8aa\	8r
.	4c\	.	8gg\	4r
.	.	.	8ff\	.
4BB-\	4d\	.	8een\	[4ddd\
.	.	.	[8ff\J	.
=190	=190	=190	=190	=190
2EE\	4G/	.	4ff\]	8ddd\L]
.	.	.	.	8ddd\
.	8A/L	.	8ee\L	8ccc\
.	8B-/J	.	8dd\	8bb-\
4AA\	4c/	.	8cc\	8aa\
.	.	.	8ee\J	8ccc\J
=191	=191	=191	=191	=191
2.BB-\	4B-/	.	2.dd\	8ddd\L
.	.	.	.	8gg\
.	4A/	.	.	8aa\
.	.	.	.	8aan\
.	4G/	.	.	8bb-\
.	.	.	.	8ff-X\J
=192	=192	=192	=192	=192
4C\	4G/	.	8cc\L	4een\
.	.	.	8g\	.
2FF\	2F/	.	8a\	2ee\
.	.	.	8g\J	.
.	.	.	4f\	.
=193||	=193||	=193||	=193||	=193||
*M6/8	*M6/8	*	*M6/8	*M6/8
!	!	!	!	!LO:TX:a:t=Vivo
!	!	!	!LO:N:vis=4	!LO:TX:a:t=12 Var.
8A 8C 8FF\	4r	.	8r	4r
4F\	.	.	8r	.
!	!LO:TX:a:t=pizz.	!	!LO:TX:a:t=pizz.	!LO:TX:a:t=pizz.
.	8f\	.	8a/	8ff\
8f\	8r	.	8r	8r
16e\LL	16b-'\LL	.	16ff'\LL	16bb-'\LL
16d\	16b-'\JJ	.	16ff'\JJ	16bb-'\JJ
16c\	16b-'\LL	.	16ff'\LL	16ddd\LL
16B-\JJ	16b-'\JJ	.	16ff'\JJ	16ddd\JJ
=194	=194	=194	=194	=194
16c\LL	16g'\LL	.	16een'\LL	16ccc\LL
16B-\	16g'\JJ	.	16ee'\JJ	16ccc\JJ
16A\	16cc'\LL	.	16ee'\LL	16gg\LL
16G\JJ	16cc'\JJ	.	16ee'\JJ	16gg\JJ
16F\LL	8cc\	.	8ff\	16aa\
16E\	.	.	.	16r
16D\	8r	.	8r	8r
16C\JJ	.	.	.	.
16D\LL	8b-'\L	.	8ff\	16bb-\LL
16E\	.	.	.	16bb-\JJ
16D\	8b-'\J	.	8dd\	16ff\LL
16C\JJ	.	.	.	16ff\JJ
!!LO:PB:g=original
=195||	=195||	=195||	=195||	=195||
*k[b-e-a-d-]	*k[b-e-a-d-]	*	*k[b-e-a-d-]	*k[b-e-a-d-]
16BB-\LL	8f\	.	8dd-\	8gg\
16D-\	.	.	.	.
16B-\	8r	.	8r	8r
16A-\JJ	.	.	.	.
16G\LL	8r	.	8r	8r
16B-\	.	.	.	.
!	!LO:TX:a:t=pizz.	!	!LO:TX:a:t=pizz.	!LO:TX:a:t=pizz.
16d-\	8g\	.	8b-\	8ff\
16c\JJ	.	.	.	.
16B-\LL	8g\	.	8b-\	8ee-\
16d-\	.	.	.	.
16g\	8g\	.	8b-\	8dd-\
16f\JJ	.	.	.	.
=196	=196	=196	=196	=196
16en\LL	8g\	.	8b-\	8cc\
16c\	.	.	.	.
16B-\	8r	.	8b-\	8r
16G\JJ	.	.	.	.
16En\LL	8cc\	.	8een\	8ccc\
16C\	.	.	.	.
16BB-\	8r	.	8r	8r
16GG\JJ	.	.	.	.
8C\L	8cc\	.	8bb-\	8eeen\
8CC\J	8r	.	8r	8r
=197	=197	=197	=197	=197
8A- 8C 8FF\	8cc\	.	8aa-\	8fff\
4FF\	8r	.	8r	8r
.	8f\	.	8a-/	8ff\
8f\	8r	.	8r	8r
16e-\LL	8b-\	.	8ff\	8bb-\
16d-\	.	.	.	.
16c\	8b-\	.	8ff\	8ddd-\
16B-\JJ	.	.	.	.
=198	=198	=198	=198	=198
16e-\LL	8b-\	.	8gg\	8ddd-\
16d-\	.	.	.	.
16B-\	8r	.	8r	8r
16E-\JJ	.	.	.	.
16A-\LL	8cc\	.	8aa-\	8ccc\
16G\	.	.	.	.
16F\	8r	.	8r	8r
16E-\JJ	.	.	.	.
16D-\LL	8cc\L	.	8aa-\	8eee-\
16C\	.	.	.	.
16BB-\	8ddn\J	.	8ccc\	8fff#X\
16AA-\JJ	.	.	.	.
=199	=199	=199	=199	=199
8cL 8E- 8GG\	8ee-\	.	8ccc\	8ggg\
8G\J	8r	.	8r	8r
8g\L	8ee-\L	.	8gg\L	8r
16f\L	8cc\J	.	8gg\J	8eee-'\
16e-\JJ	.	.	.	.
16dn\LL	8bn\L	.	8gg\L	8fff'\L
16c\	.	.	.	.
16Bn\	8dd-\J	.	8ff\J	8dddn'\J
16G\JJ	.	.	.	.
=200	=200	=200	=200	=200
16c\LL	8cc\	.	8ee-\	8ccc\
16A-\	.	.	.	.
16G\	8r	.	8r	8r
16E-\JJ	.	.	.	.
16C\LL	4r	.	4r	4r
16AA-\	.	.	.	.
16GG\	.	.	.	.
16EE-\JJ	.	.	.	.
8CC\L	4r	.	4r	4r
8C\J	.	.	.	.
!!LO:LB:g=original
=201||	=201||	=201||	=201||	=201||
*^	*	*	*	*
4.G-X/	8r	4r	.	4r	4r
.	4BB- 4EE-\	.	.	.	.
.	.	8e-\	.	8b-\	8gg-X\
8e-\	4.ryy	8r	.	8r	8r
16d-\LL	.	8f\	.	8an\	8ff\
16c\	.	.	.	.	.
16B-\	.	8f\	.	8cc\	8ee-\
16An\JJ	.	.	.	.	.
*v	*v	*	*	*	*
=202	=202	=202	=202	=202
16B-\LL	8f\	.	8b-\	8dd-\
16G-X\	.	.	.	.
16F\	8r	.	8r	8r
16D-\JJ	.	.	.	.
16BB-\LL	8f\	.	8dd-\	8bb-\
16AA-X\	.	.	.	.
16BB-\	8r	.	8r	8r
16C\JJ	.	.	.	.
8D-\L	4r	.	4r	4r
8FFn\J	.	.	.	.
=203	=203	=203	=203	=203
*^	*	*	*	*
4.F-X/	8r	4r	.	4r	4r
.	4AA- 4DD-\	.	.	.	.
.	.	8d-\	.	8a-/	8ff-X\
8d-/	8r	8r	.	8r	8r
16c\LL	4ryy	8e-\	.	8g/	8ee-\L
16B-\	.	.	.	.	.
16A-\	.	8e-\	.	8b-/	8dd-\J
16G\JJ	.	.	.	.	.
*v	*v	*	*	*	*
=204	=204	=204	=204	=204
16A-\LL	8e-\	.	8a-/	8cc\
16F-X\	.	.	.	.
16E-\	8r	.	8r	8r
16C\JJ	.	.	.	.
16AA-\LL	4r	.	4r	4r
16GG\	.	.	.	.
16AA-\	.	.	.	.
16BB-\JJ	.	.	.	.
!	!LO:TX:a:t=arco	!	!LO:TX:a:t=arco	!LO:TX:a:t=arco
8C\L	8c\	.	8b-\	8een\
8CC\J	8r	.	8r	8r
=205	=205	=205	=205	=205
8A- 8C 8FF\	8c\	.	8a-\	8ff\
4FF\	8r	.	8r	8r
!	!	!	!	!LO:TX:a:t=pizz.
.	8f\	.	8a-/	8ff\
8f\	8r	.	8r	8r
16e-\LL	8b-\	.	8ff\	8bb-\
16d-\	.	.	.	.
16c\	8b-\	.	8ff\	8ddd-\
16B-\JJ	.	.	.	.
=206	=206	=206	=206	=206
16e-\LL	8b-\	.	8gg\	8ddd-\
16d-\	.	.	.	.
16B-\	8r	.	8r	8r
16F\JJ	.	.	.	.
16A-\LL	8cc\	.	8aa-\	8ccc\
16G\	.	.	.	.
16F\	8r	.	8r	8r
16E-\JJ	.	.	.	.
16D-\LL	8b-\L	.	8ff\L	8bb-\L
16C\	.	.	.	.
16BB-\	8b-\J	.	8ff\J	8ddd-\J
16AA-\JJ	.	.	.	.
!!LO:LB:g=original
=207	=207	=207	=207	=207
8B-L 8D- 8GG\	8b-\	.	8ff\	8eee-\
8GG\J	8r	.	8r	8r
8f\L	8r	.	8r	8r
16e-\L	8b-\	.	8ff\	8gg\
16d-\JJ	.	.	.	.
16c\LL	8cc\	.	8een\	8aa-\
16B-\	.	.	.	.
16A-\	8b-\	.	8cc\	8een\
16G\JJ	.	.	.	.
=208	=208	=208	=208	=208
16F\LL	8a-\	.	8cc\	8ff\
16En\	.	.	.	.
16F\	8r	.	8r	8r
16D-\JJ	.	.	.	.
16C\LL	4r	.	4r	4r
16BB-\	.	.	.	.
16AA-\	.	.	.	.
16GG\JJ	.	.	.	.
!	!LO:TX:b:t=arco	!	!LO:TX:a:t=arco	!LO:TX:b:t=arco
4FF\	4a- 4c 4F/	.	4aa- 4cc\	4fff\
=209||	=209||	=209||	=209||	=209||
*k[bnenandnb-]	*k[bnenandnb-]	*	*k[bnenandnb-]	*k[bnenandnb-]
*	*^	*	*	*
!LO:TX:t=P:problem=od tej pory utwór pisany niebieskim tuszem	!LO:TX:t=P:problem=od tej pory utwór pisany niebieskim tuszem	!	!	!LO:TX:t=P:problem=od tej pory utwór pisany niebieskim tuszem	!LO:TX:t=P:problem=od tej pory utwór pisany niebieskim tuszem
[<2.F\	4r	4ryy	.	4a/	8aa\L
.	.	.	.	.	16gg\L
.	.	.	.	.	16aa\JJ
.	4A/	2f/	.	8cc/L	(4ff\
.	.	.	.	16bn/L	.
.	.	.	.	16cc/JJ	.
.	[<4B-/	.	.	4dd/	8fff\L)
.	.	.	.	.	16eee\L
.	.	.	.	.	16fff\JJ
*	*v	*v	*	*	*
=210	=210	=210	=210	=210
4F\]	8gL 8B-/]	.	4ee/	8bbn\L
.	16f#X/L	.	.	(<8ccc\J
.	16g/JJ	.	.	.
8F\L	4fn 4A/	.	4ff/	4aaa\)
16E\L	.	.	.	.
16F\JJ	.	.	.	.
4E\	4c/	.	8gg/L	4ggg\
.	.	.	8dd#X/J	.
=211	=211	=211	=211	=211
8A\L	8g/L	.	8ee/L	4ccc\
16G#X\L	8e/J	.	8cc/J	.
16A\JJ	.	.	.	.
4D\	4f/	.	4dd/	8fff\L
.	.	.	.	16eee\L
.	.	.	.	16fff\JJ
4G#\	4g 4c/	.	4ee/	8eee\L
.	.	.	.	8ccc\J
=212	=212	=212	=212	=212
4GG\	4f#X 4c/	.	8ee-X/L	8bbn\L
.	.	.	16dd/L	8aa\J
.	.	.	16ee-/JJ	.
8G\L	8fnL 8B-/	.	4dd/	8gg\L
8GG\J	16A/L	.	.	8ddd\J
.	16Bn/JJ	.	.	.
8C\L	4c/	.	4een/	8ccc\L
16BBn\L	.	.	.	8aa\J
16C\JJ	.	.	.	.
!!LO:LB:g=original
=213	=213	=213	=213	=213
*	*^	*	*	*
[2.F\	4c/	4ryy	.	4ff/	8aa\L
.	.	.	.	.	16gg\L
.	.	.	.	.	16aa\JJ
.	4A/	2f/	.	8cc/L	4ff\
.	.	.	.	16bn/L	.
.	.	.	.	16cc/JJ	.
.	(<4B-/	.	.	4dd/	8fff\L
.	.	.	.	.	16eee\L
.	.	.	.	.	16fff\JJ
*	*v	*v	*	*	*
=214	=214	=214	=214	=214
4F\]	8fL 8A/)	.	4ff/	8bbn\L
.	(16e/L	.	.	8ccc\J
.	16f/JJ)	.	.	.
8D#X\L	4f 4A/	.	[4cc/	4aaa\
16C##X\L	.	.	.	.
16D#\JJ	.	.	.	.
4E\	4e 4A/	.	4ee 4cc\]	8eee\L
!	!	!	!	!LO:SIC:o:s:v:t=belka przez kreskę taktową
.	.	.	.	8ccc\
=215	=215	=215	=215	=215
4EE\	8f#XL 8A/	.	4dd#X\	8bbn\
.	16e#X/L	.	.	8aa\J
.	16f#/JJ	.	.	.
4BBn\	4fn 4A/	.	4ee#X\	8ddd\L
.	.	.	.	16ccc#X\L
.	.	.	.	16ddd\JJ
4E\	4e# 4G#X/	.	8ee#X\L	8cccn\L
.	.	.	16dd#X\L	8bbn\J
.	.	.	16ee#X\JJ	.
=216	=216	=216	=216	=216
4EE\	[4e/	.	4dd#X\	8ccc\L
.	.	.	.	8gg#X\J
2AA\	4e/]	.	8r	2aa\
.	.	.	16bn\LL	.
.	.	.	16cc\JJ	.
.	4c/	.	4a\	.
=217||	=217||	=217||	=217||	=217||
*	*^	*	*	*
4r	4cc/	4r	.	4r	8ee-X\L
.	.	.	.	.	16dd\L
.	.	.	.	.	16ee-\JJ
4GG\	4r	2ryy	.	8ee-X\L	4ccc\
.	.	.	.	16dd\L	.
.	.	.	.	16ee-\JJ	.
[<4A\	8e-X\L	.	.	8ccc\L	(8gg\L
!	!	!	!	!LO:SIC:o:s:v:t=belka przez kreskę taktową	!
.	16d\L	.	.	8bb-\	8ggg\J)
.	16e-\JJ	.	.	.	.
*	*v	*v	*	*	*
=218	=218	=218	=218	=218
4A\]	4a\	.	8aa\	(8fffn\L
.	.	.	8gg\J	8eee-X\J)
4D\	8dd\L	.	8ff#X\L	8ddd\L
.	8a\J	.	16ee\L	8ccc\J
.	.	.	16ff#\JJ	.
8G\L	8g\L	.	8r	4bb-\
16F#X\L	8d\J	.	8ryy	.
16G\JJ	.	.	.	.
!!LO:PB:g=original
=219	=219	=219	=219	=219
*^	*	*	*	*
2GG\	4r	4B-/	.	4r	8dd-X\L
.	.	.	.	.	16cc\L
.	.	.	.	.	16dd-\JJ
.	2ryy	4r	.	8dd-X\L	4bb-\
.	.	.	.	16cc\L	.
.	.	.	.	16dd-\JJ	.
[<4G\	.	8d-X\L	.	8bb-\L	(8ff\L
!	!	!	!	!LO:SIC:o:s:v:t=belka przez kreskę taktową	!
.	.	16c\L	.	8aa-X\	8fff\J)
.	.	16d-\JJ	.	.	.
*v	*v	*	*	*	*
=220	=220	=220	=220	=220
4G\]	4b-\	.	8gg\	(8eee-X\L
.	.	.	8ff\J	8ddd-X\J)
4C\	8cc\L	.	8ee\L	8ccc\L
.	8g\	.	16dd\L	8bb-\J
.	.	.	16ee\JJ	.
8F\L	8f\	.	4ff\	4aa\
16E\L	8c\J	.	.	.
16F\JJ	.	.	.	.
=221	=221	=221	=221	=221
*	*^	*	*	*
4FF\	4A/	4r	.	[4cc\	8aa\L
.	.	.	.	.	16r
.	.	.	.	.	16aa\Jk
[<2F\	2f/	4A\	.	8cc\L]	(4ff\
.	.	.	.	16bn\L	.
.	.	.	.	16cc\JJ	.
.	.	4B-\	.	4dd\	8fff\L)
.	.	.	.	.	16eee\L
.	.	.	.	.	16fff\JJ
*	*v	*v	*	*	*
=222	=222	=222	=222	=222
4F\]	8fL 8A/	.	4ff\	8bbn\L
.	16e/L	.	.	(8ccc\J
.	16f/JJ	.	.	.
8F#X\L	4a 4c/	.	4ee-X\	4cccc\)
16E#X\L	.	.	.	.
16F#\JJ	.	.	.	.
4G\	[4b- 4B-/	.	4dd\	8bbb-\L
.	.	.	.	8aaa\J
=223	=223	=223	=223	=223
8BB-\L	8b-/L]	.	4dd-X\	8ggg\L
16AA\L	8g/J	.	.	8gggJ 8eee\
16BB-\JJ	.	.	.	.
4C\	4a\	.	4cc\	8fff\L
.	.	.	.	16eee\L
.	.	.	.	16fff\JJ
4c\	8f'\L	.	8a/L	8ccc\L
.	8d\J	.	16g#X/L	8bbn\J
.	.	.	16a/JJ	.
=224	=224	=224	=224	=224
4C\	8e\L	.	4b-X/	(8bb-X\L
.	16d\L	.	.	8gg\J)
.	16e\JJ	.	.	.
!	!	!	!	!LO:TX:t=P:problem=dalsza część po dwóch pustych stronach
2FF\	8f\L	.	8a/L	2ff\
.	8c\J	.	16g/L	.
.	.	.	16a/JJ	.
.	4A\	.	4f/	.
!!LO:PB:g=original
=225	=225	=225	=225	=225
*M3/8	*M3/8	*	*M3/8	*M3/8
4.ryy	8r	.	4.ryy	4.ryy
.	8c\L	.	.	.
.	[8d\J	.	.	.
=226	=226	=226	=226	=226
4.ryy	16d\LL]	.	4.ryy	4.ryy
.	16G\	.	.	.
.	16A\	.	.	.
.	16B-\J	.	.	.
.	[8c\J	.	.	.
=227	=227	=227	=227	=227
4.ryy	16c\LL]	.	4.ryy	4.ryy
.	16F#X\	.	.	.
.	16G\	.	.	.
.	16A\J	.	.	.
.	8B-\J	.	.	.
=228	=228	=228	=228	=228
4.ryy	16A\LL	.	4.ryy	4.ryy
.	16G\	.	.	.
.	16Fn\	.	.	.
.	16A\	.	.	.
.	16G\	.	.	.
.	16F\JJ	.	.	.
=229	=229	=229	=229	=229
4.ryy	4E\	.	8r	4.ryy
.	.	.	8g/L	.
.	(8c\L	.	[8a/J	.
=230	=230	=230	=230	=230
4.ryy	8Bn\J)	.	16a/LL]	4.ryy
.	.	.	16d/	.
.	8r	.	16e/	.
.	.	.	16f/J	.
.	(8B-X\L	.	[8g/J	.
=231	=231	=231	=231	=231
4.ryy	8A\J)	.	16g/LL]	4.ryy
.	.	.	16c#X/	.
.	8r	.	16d/	.
.	.	.	16e/J	.
.	8A-X\	.	8f/J	.
!!LO:LB:g=original
=232	=232	=232	=232	=232
4.ryy	8G\L	.	16e/LL	4.ryy
.	.	.	16d/	.
.	16A\L	.	16cn/	.
.	16G\	.	16e/	.
.	16F\	.	16d/	.
.	16G\JJ	.	16Bn/JJ	.
=233	=233	=233	=233	=233
4.ryy	8E\L	.	16c/LL	4.ryy
.	.	.	16dd/	.
.	8F\	.	16cc/	.
.	.	.	16b-/	.
.	8G#X\J	.	16a/	.
.	.	.	16cc/JJ	.
=234	=234	=234	=234	=234
4.ryy	16G#X\LL	.	16b-/LL	4.ryy
.	16A\	.	16a/	.
.	16B-\	.	16g/	.
.	16Bn\	.	16f/	.
.	16c\	.	16e/	.
.	16B-X\JJ	.	16g/JJ	.
=235	=235	=235	=235	=235
4.ryy	4A\	.	[4.f/	8r
.	.	.	.	8cc\L
.	(8A-X\L	.	.	[8dd\J
=236	=236	=236	=236	=236
4.ryy	8G\J)	.	8f/L]	16dd\LL]
.	.	.	.	16g\
.	8r	.	8e/	16a\
.	.	.	.	16b-\J
.	8An/	.	8e-X/J	[8cc\J
=237	=237	=237	=237	=237
4.ryy	8B-L 8G/	.	8d/L	16cc\LL]
.	.	.	.	16f#X\
.	8A/	.	8c/	16g\
.	.	.	.	16a\J
.	8G/J	.	8B-/J	8b-\J
=238	=238	=238	=238	=238
4.ryy	8F/L	.	4c/	16a/LL
.	.	.	.	16g/
.	8D/	.	.	16f/
.	.	.	.	16a/
.	8G/J	.	8Bn/	16g/
.	.	.	.	16f/JJ
=239	=239	=239	=239	=239
4.ryy	4C/	.	8c/	16e/LL
.	.	.	.	16f/
.	.	.	4e/	16g/
.	.	.	.	16a/
.	8c/	.	.	16bn/
.	.	.	.	16cc/JJ
!!LO:LB:g=original
=240	=240	=240	=240	=240
4.ryy	8B-/L	.	4f/	16dd\LL
.	.	.	.	16cc\
.	8G/	.	.	16b-\
.	.	.	.	16dd\
.	8c/J	.	8e/	16cc\
.	.	.	.	16b-\JJ
=241	=241	=241	=241	=241
4.ryy	4F/	.	8f/L	16a\LL
.	.	.	.	16b-\
.	.	.	8a/	16cc\
.	.	.	.	16dd\
.	8f/	.	8a-X/J	16ee\
.	.	.	.	16ff\JJ
=242	=242	=242	=242	=242
8r	8e/L	.	16g/LL	16ee\LL
.	.	.	16an/	16ff\
8G\L	8Bn/	.	16g/	16ee\
.	.	.	16f/J	16dd\
[8A\J	8c/J	.	8e/J	16b-\
.	.	.	.	16ee\JJ
=243	=243	=243	=243	=243
!	!	!	!	!LO:TX:a:t=|
16A\LL]	8c/	.	8a/L	8ff\L
16D\	.	.	.	.
16E\	4Bn/	.	8g/	8gg\
16F\J	.	.	.	.
[8G\J	.	.	8f/J	8dd\J
=244	=244	=244	=244	=244
16G\LL]	8B-X/L	.	8g/L	8ee\L
16C#X\	.	.	.	.
16D\	8A/	.	8f/	8ff\
16E\J	.	.	.	.
8F\J	8A-X/J	.	8e/J	8bn\J
=245	=245	=245	=245	=245
16E\LL	8G/	.	8c/	16cc\LL
16D\	.	.	.	16dd\
16C\	8r	.	8r	16ee\
16E\	.	.	.	16ff\
16D\	8r	.	8r	16gg\
16C\JJ	.	.	.	16aa\JJ
=246	=246	=246	=246	=246
16BB-\LL	4.r	.	16g/LL	8bb-\
16AA\	.	.	16a/	.
16GG\	.	.	16b-/	[4bb-^\
16BB-\	.	.	16cc#X/	.
16AA\	.	.	16dd/	.
16GG\JJ	.	.	16ee/JJ	.
=247	=247	=247	=247	=247
[4.E\	16G/LL	.	8ee/	16bb-\LL]
.	16A/	.	.	16aa\
.	16B-/	.	4ee^>/	16gg\
.	16c#X/	.	.	16bb-\
.	16d/	.	.	16aa\
.	16e/JJ	.	.	16gg\JJ
!!LO:LB:g=original
=248	=248	=248	=248	=248
8E\L]	8e\	.	16ee\LL	8gg\L
.	.	.	16dd\	.
8AA\	4e^\	.	16cc#X\	8eee\
.	.	.	16ee\	.
8A\J	.	.	16dd\	8gg\J
.	.	.	16cc#\JJ	.
=249	=249	=249	=249	=249
4.D\	16f\LL	.	4.dd\	16ff\LL
.	16e\	.	.	16gg\J
.	16d\	.	.	8aa\
.	16f\	.	.	.
.	16e\	.	.	8dd\J
.	16d\JJ	.	.	.
=250	=250	=250	=250	=250
16D\LL	8a\L	.	4.r	8ff\
16E\	.	.	.	.
!	!	!	!	!LO:N:vis=8
16F\	8a\	.	.	4ff^\
16G\	.	.	.	.
16A\	8g\J	.	.	.
16Bn\JJ	.	.	.	.
=251	=251	=251	=251	=251
8c\	4f\	.	[4.a\	16a/LL
.	.	.	.	16bn/
4c^\	.	.	.	16cc#X/
.	.	.	.	16dd/
.	8e\	.	.	16ee/
.	.	.	.	16ff/JJ
=252	=252	=252	=252	=252
8Bn\L	[<4.d\	.	4.a\]	16gg\LL
.	.	.	.	16ff\
8a\	.	.	.	16ee\
.	.	.	.	16ff\
8B\J	.	.	.	16gg\
.	.	.	.	16ff\JJ
=253	=253	=253	=253	=253
8e\	4d\]	.	16g#X/LL	8ee\L
.	.	.	16a/	.
4E\	.	.	16bn/	8ddd\
.	.	.	16cc/	.
.	8G#X/	.	16dd/	16ccc\L
.	.	.	16ee/JJ	16bbn\JJ
=254	=254	=254	=254	=254
[4.A\	16A/LL	.	8cc/L	4.ccc\
.	16Bn/	.	.	.
.	16c/	.	8ee/	.
.	16e/	.	.	.
.	16f#X/	.	16dd/L	.
.	16g#X/JJ	.	16cc/JJ	.
=255	=255	=255	=255	=255
8A\]	8a/L	.	16a/LL	8ee-X\L
.	.	.	16b-/	.
4D\	8f#X/	.	16cc/	8ccc\
.	.	.	16dd/	.
.	8d/J	.	16een/	16bb-\L
.	.	.	16ff#X/JJ	16aa\JJ
!!LO:PB:g=original
=256	=256	=256	=256	=256
8G\	16B-/LL	.	8gg\L	4.bb-\
.	16c/	.	.	.
4GG\	16d/	.	8dd\	.
.	16e/	.	.	.
.	16f#X/	.	16cc\L	.
.	16g/JJ	.	16b-\JJ	.
=257	=257	=257	=257	=257
16GG\LL	8g/L	.	8b-\L	8bb-L 8b- 8d 8G/
16AA\	.	.	.	.
16BB-\	8f#X/	.	16dd\L	8aa/
16C\	.	.	16cc\J	.
16D\	8g/J	.	8b-\J	8gg/J
16F#X\JJ	.	.	.	.
=258	=258	=258	=258	=258
16G\LL	16G/LL	.	4.b-\	16bb-\LL
16Fn\J	16A/	.	.	16aa\J
8E\	16B-/	.	.	8gg\
.	16c/	.	.	.
8D\J	16d/	.	.	8bb-\J
.	16f#X/JJ	.	.	.
=259	=259	=259	=259	=259
16D-X\LL	4.fn\	.	16g\LL	8bb-\
16C\J	.	.	16a\	.
8BB-\	.	.	16b-\	4bb-^\
.	.	.	16cc\	.
8GG\J	.	.	16dd-X\	.
.	.	.	16gg\JJ	.
=260	=260	=260	=260	=260
[<4.C\	16e\LL	.	16gg\LL	16bb-\LL
.	16f\	.	16ff\	16aa\
.	16g\	.	16ee\	16gg\
.	16f#X\	.	16ee-X\	16aa\
.	16g\	.	16dd\	16bb-\
.	16B-\JJ	.	16dd-X\JJ	16gg\JJ
=261	=261	=261	=261	=261
!	!	!	!LO:SIC:o:v=wytarte dźwięki	!
8C\]	16B-\LL	.	[4.cc/	16ee\LL
.	16A\	.	.	16ff\
8r	16G\	.	.	16gg\
.	16B-\	.	.	16aa\
8r	16A\	.	.	16bb-\
.	16G\JJ	.	.	16bbn\JJ
=262	=262	=262	=262	=262
*	*	*	*^	*
4.r	4.A\	.	4cc/]	16f\LL	8ccc\
.	.	.	.	16c\	.
.	.	.	.	16e\	8ccc\L
.	.	.	.	16f\	.
.	.	.	8ryy	16f#X\	[8ddd\J
.	.	.	.	16cc\JJ	.
*	*	*	*v	*v	*
=263	=263	=263	=263	=263
4.r	4.G\	.	16cc\LL	16ddd\LL]
.	.	.	16b-\	16ff#X\
.	.	.	8qcc/	.
.	.	.	16b-\	16gg\
.	.	.	16a\	16aa\J
.	.	.	16g\	8bb-\J
.	.	.	16f\JJ	.
!!LO:LB:g=original
=264	=264	=264	=264	=264
4.r	4.c\	.	8e/	16bb-\LL
.	.	.	.	16aa\
.	.	.	8b-/L	16gg\
.	.	.	.	16bb-\
.	.	.	[8cc/J	16aa\
.	.	.	.	16gg\JJ
=265	=265	=265	=265	=265
4.r	4.F/	.	16cc/LL]	16aa\LL
.	.	.	16e/	16gg\
.	.	.	16f/	16ff\
.	.	.	16g/J	16ee\
.	.	.	8a/J	16ff\
.	.	.	.	16cc\JJ
=266	=266	=266	=266	=266
4.D\	8r	.	16a/LL	4.ff\
.	.	.	16g/	.
.	8A/L	.	16f/	.
.	.	.	16a/	.
.	[8B-/J	.	16g/	.
.	.	.	16f/JJ	.
=267	=267	=267	=267	=267
4.GG\	16B-/LL]	.	16g/LL	8ee\L
.	16D/	.	16f/	.
.	16E/	.	16e/	8gg\
.	16F/J	.	16d/	.
.	8G/J	.	16e/	8dd\J
.	.	.	16B-/JJ	.
=268	=268	=268	=268	=268
8r	8A/	.	8e/L	16cc#X\LL
.	.	.	.	16dd\
8AA\L	4c#X/	.	8a/	16ee\
.	.	.	.	16ff\
[8BB-\J	.	.	8g/J	16gg\
.	.	.	.	16ee\JJ
=269	=269	=269	=269	=269
8BB-\L]	16d\LL	.	16f/LL	16ff\LL
.	16e\	.	16g/JJ	16ee\J
16EE\L	16f\	.	4a/	8dd\
16FF\J	16e\	.	.	.
8D\J	16d\	.	.	8ff\J
.	16c\JJ	.	.	.
=270	=270	=270	=270	=270
8D\L	4.B-/	.	16g/LL	8ee\
.	.	.	16a/	.
8D-X\	.	.	16b-/	4gg\
.	.	.	16a/	.
8C\J	.	.	16b-/	.
.	.	.	16g/JJ	.
=271	=271	=271	=271	=271
8C\L	4.A/	.	16f/LL	16aa\LL
.	.	.	16g/	16gg\J
16FF\L	.	.	16a/	8ff\
16AA\J	.	.	16g/	.
8F\J	.	.	16f/	8aa\J
.	.	.	16a/JJ	.
!!LO:LB:g=original
=272	=272	=272	=272	=272
8F\L	4d\	.	16bn\LL	16gg#X\LL
.	.	.	16cc\	16aa\
8E\	.	.	16dd\	16bbn\
.	.	.	16ee\J	16ccc\
8EE\J	8g#X\	.	8ff\J	16ddd\
.	.	.	.	16bb\JJ
=273	=273	=273	=273	=273
4.AA\	16gn\LL	.	4.ee 4.e\	16ccc#X\LL
.	16f\	.	.	16ddd\
.	16e\	.	.	16eee\
.	16d\	.	.	16fff\J
.	16c#X\	.	.	8ggg\J
.	16g\JJ	.	.	.
=274	=274	=274	=274	=274
4.BB-\	16g\LL	.	4.ee 4.e\	16ccc#X\LL
.	16f\	.	.	16ddd\
.	16e\	.	.	16eee\
.	16d\	.	.	16fff\J
.	16c#X\	.	.	8ggg\J
.	16g\JJ	.	.	.
=275	=275	=275	=275	=275
[<4.AA\	16g\LL	.	4.ee 4.e\	16ccc#X\LL
.	16f\	.	.	16ddd\
.	16e\	.	.	16eee\
.	16d\	.	.	16fff\
.	16c#X\	.	.	16ggg\
.	16B-\JJ	.	.	16ggg#X\JJ
=276	=276	=276	=276	=276
4.AA\_<	16A\LL	.	16cc#X\LL	8aaa\
.	16B-\	.	16dd\	.
.	16A\	.	16cc#\	(4aaa\
.	16B-\	.	16b-\	.
.	16A\	.	16a\	.
.	16B-\JJ	.	16cc#\JJ	.
=277	=277	=277	=277	=277
!	!LO:TUP:a:problem=klamra łukowa	!	!	!
4.AA\]	24G\LL	.	16a/LL	8aa\)
.	24A\	.	.	.
.	.	.	16b-/	.
.	24G\	.	.	.
!	!LO:TUP:a:problem=klamra łukowa	!	!	!
.	24A\	.	16g/	(4aa^\
.	24G\	.	.	.
.	.	.	16f/	.
.	24A\	.	.	.
!	!LO:TUP:a:problem=klamra łukowa	!	!	!
.	24G\	.	16e/	.
.	24A\	.	.	.
.	.	.	16a/JJ	.
.	24G\JJ	.	.	.
=278	=278	=278	=278	=278
8AA\	32A\LLL	.	16A/LL	8a/)
.	32B-\	.	.	.
.	32A\	.	16Bn/	.
.	32B-\JJJ	.	.	.
4AA^\	32A\LLL	.	16c#X/	[4a^>/
.	32B-\	.	.	.
.	32A\	.	16d/	.
.	32B-\JJJ	.	.	.
.	32A\LLL	.	16e/	.
.	32B-\	.	.	.
.	32A\	.	16f/JJ	.
.	32B-\JJJ	.	.	.
=279	=279	=279	=279	=279
16AA\LL	4.Att/	.	4.g/	8a/]
16BB-\	.	.	.	.
16GG\	.	.	.	8r
16FF\	.	.	.	.
16EE\	.	.	.	8r
16AA\JJ	.	.	.	.
!!LO:LB:g=original
=280	=280	=280	=280	=280
4.DD\	[>4.Att/	.	16f/LL	8r
.	.	.	16g/	.
.	.	.	16f/	8aa\L
.	.	.	16e/	.
.	.	.	16d/	[8aa\J
.	.	.	16dd/JJ	.
=281	=281	=281	=281	=281
[4.D\	4.Att/_>	.	8cc#X/L	16aa\LL]
.	.	.	.	16ee\
.	.	.	8dd/	16ff\
.	.	.	.	16gg\J
.	.	.	8ccn/J	[8aa\J
=282	=282	=282	=282	=282
4.D\]	4.Att/]	.	8b-/L	16aa\LL]
.	.	.	.	16dd\
.	.	.	16g/L	16ee\
.	.	.	16f/J	16ff\J
.	.	.	8e/J	8gg\J
=283	=283	=283	=283	=283
4D\	8A/L	.	8d/	16ff\LL
.	.	.	.	16ee\
.	8B-/	.	8r	16dd\
.	.	.	.	16ff\
[8GG\	8Bn/J	.	8r	16ee\
.	.	.	.	16dd\JJ
=284	=284	=284	=284	=284
8GG\]	8c/	.	8r	16ee\LL
.	.	.	.	16dd\
[4GG\	4E/	.	4c/	16cc\
.	.	.	.	16dd\
.	.	.	.	16cc\
.	.	.	.	16cc\JJ
=285	=285	=285	=285	=285
8GG\]	4.F/	.	8Bn/	16dd\LL
.	.	.	.	16cc\
[<4GG\	.	.	4d/	16bn\
.	.	.	.	16dd\
.	.	.	.	16cc\
.	.	.	.	16b\JJ
=286	=286	=286	=286	=286
8GG\]	4.E/	.	4.e/	16dd\LL
.	.	.	.	16cc\
4GG#X\	.	.	.	16bn\
.	.	.	.	16dd\
.	.	.	.	16cc\
.	.	.	.	16b\JJ
=287	=287	=287	=287	=287
!LO:TX:a:t=P:problem=♮ above	!	!	!	!
4.AAtt<\	4.E/	.	8r	16cc\LL
.	.	.	.	16dd\
.	.	.	8e/L	16cc\
.	.	.	.	16bn\
.	.	.	[8f/J	16a\
.	.	.	.	16aa\JJ
!!LO:PB:g=original
=288	=288	=288	=288	=288
4.AAtt\	4.E/	.	16f/LL]	8gg#X\L
.	.	.	16Bn/	.
.	.	.	16c/	8aa\
.	.	.	16d/J	.
.	.	.	[8e/J	8ggn\J
=289	=289	=289	=289	=289
4.AAtt\	4.F/	.	16e/LL]	8ff\L
.	.	.	16A/	.
.	.	.	16Bn/	8gg\
.	.	.	16c/J	.
.	.	.	8d/J	8ff\J
=290	=290	=290	=290	=290
4.GG\	8G/L	.	4.e/	16ee\LL
.	.	.	.	16ff\
.	8A/	.	.	16ee\
.	.	.	.	16dd\
.	8B-/J	.	.	16cc#X\
.	.	.	.	16ee\JJ
=291	=291	=291	=291	=291
16FF\LL	4.A/	.	4.f/	8dd\L
16GG\	.	.	.	.
16FF\	.	.	.	8a\
16EE\	.	.	.	.
16DD\	.	.	.	8aa\J
16FF\JJ	.	.	.	.
=292	=292	=292	=292	=292
4.GG\	4.B-/	.	16e/LL	8gg\L
.	.	.	16f/	.
.	.	.	16e/	8cc\
.	.	.	16d/	.
.	.	.	16c/	8ccc\J
.	.	.	16e/JJ	.
=293	=293	=293	=293	=293
!LO:N:vis=8.	!	!	!	!
8AA\L	16A/LL	.	4.f/	4ccc\
.	16B-/	.	.	.
8FF\	16A/	.	.	.
.	16G/	.	.	.
8AA\J	16F/	.	.	8ccc#X\
.	16E/JJ	.	.	.
=294	=294	=294	=294	=294
4.BB-\	16D/LL	.	16f/LL	8ddd\L
.	16E/	.	16g/J	.
.	16F/	.	8a/	8cccn\
.	16Fn/	.	.	.
.	16G/	.	16b-/L	16bb-\L
!LO:SIC:o:s:v=skreślone dwa takty	!LO:SIC:o:s:v=skreślone dwa takty	!	!LO:SIC:o:s:v=skreślone dwa takty	!LO:SIC:o:s:v=skreślone dwa takty
.	16A/JJ	.	16cc/JJ	16aa\JJ
!!LO:LB:g=original
=295	=295	=295	=295	=295
4.BB-\	16B-/LL	.	8dd\L	16gg\LL
.	16A/	.	.	16ff#X\
.	16G/	.	8b-\	16gg\
.	16F/	.	.	16aa\
.	16E/	.	8g\J	16bb-\
.	16D/JJ	.	.	16bbn\JJ
=296	=296	=296	=296	=296
4.AA\	16C/LL	.	16e\LL	8ccc\L
.	16D/	.	16f\J	.
.	16E/	.	8g\	8bb-X\
.	16F/	.	.	.
.	16F#X/	.	16a\L	16aa\L
.	16G/JJ	.	16b-\JJ	16gg\JJ
=297	=297	=297	=297	=297
8GG\	16A/LL	.	16cc\LL	8ff\L
.	16Bn/	.	16dd\J	.
4C\	16c/	.	8cc\	16ee\L
.	16d/	.	.	16dd\
.	16e/	.	8g\J	16cc\
.	16f/JJ	.	.	16bn\JJ
=298	=298	=298	=298	=298
[<4.CC\	16e/LL	.	16g/LL	16cc\LL
.	16d/	.	16f/	16dd\
.	16c/	.	16e/	16ee\
.	16Bn/	.	16d/J	16ff\
.	16B-X/	.	8d-X/J	16gg\
.	16A/JJ	.	.	16aa\JJ
=299	=299	=299	=299	=299
4.CC\_<	[8G/L	.	16c/LL	16bb-\LL
.	.	.	16d/	16bbn\JJ
.	16G/L]	.	16e/	4ccc\
.	16F/	.	16f/	.
.	16E/	.	16g/	.
.	16D/JJ	.	16a/JJ	.
=300	=300	=300	=300	=300
4.CC\]	16C/LL	.	16b-/LL	[4.cccTT<\
.	16D/	.	16bn/JJ	.
.	16E/	.	[4cc/	.
.	16F/	.	.	.
.	16G/	.	.	.
.	16A/JJ	.	.	.
=301	=301	=301	=301	=301
[<4.FF\	4A/	.	8cc/]	4.cccTT<\_
.	.	.	8cc/L	.
.	[8f/	.	[8dd/J	.
=302	=302	=302	=302	=302
4.FF\_<	8f/]	.	16dd/LL]	4.cccTT<\]
.	.	.	16g/	.
.	8d\L	.	16a/	.
.	.	.	16b-/J	.
!	!	!	!LO:N:vis=16	!
.	[8e\J	.	8cc/J	.
!!LO:LB:g=original
=303	=303	=303	=303	=303
8FF\]	16e\LL]	.	4cc/	[4.cccTT<\
.	16Bn\	.	.	.
8F\L	16c\	.	.	.
.	16d\J	.	.	.
[8G\J	8e\J	.	8b-/	.
=304	=304	=304	=304	=304
16G\LL]	8c/L	.	8a/L	4.cccTT<\_
16C\	.	.	.	.
16D\	8B-/	.	8g/	.
16E\J	.	.	.	.
8F\J	8A/J	.	8f/J	.
=305	=305	=305	=305	=305
16FF\LL	[4.A/	.	8f/	8ccc\L]
16GG\	.	.	.	.
16AA\	.	.	[4cc/	(8fff\
16BB-\	.	.	.	.
16BBn\	.	.	.	[<8ggg\J)
16C\JJ	.	.	.	.
=306	=306	=306	=306	=306
!	!LO:N:vis=4	!	!	!
16D\LL	8A/_	.	4.cc/]	16ggg\LL]
16E-X\	.	.	.	16ccc\
16F\	16A/LL]	.	.	16ddd\
16G\	16B-/	.	.	16eee-X\J
16G#X\	16Bn/	.	.	8fff\J
16A\JJ	16c/JJ	.	.	.
=307	=307	=307	=307	=307
!	!	!	!LO:SIC:o:v=wytarte dźwięki	!
4.B-\	16B-X\LL	.	4dd/	8ddd\L
.	16c\	.	.	.
.	16d\	.	.	8ccc\
.	16e\	.	.	.
.	16f\	.	16dd\LL	16bb-\L
.	16f#X\JJ	.	16cc\JJ	16aa\JJ
=308	=308	=308	=308	=308
[4B-\	4g\	.	16b-\LL	8gg\L
.	.	.	16a\	.
.	.	.	16b-\	8ff\
.	.	.	16cc\	.
16B-\LL]	16g\LL	.	16cc#X\	16ee\L
16Bn\JJ	16f\JJ	.	16dd\JJ	16dd\JJ
=309	=309	=309	=309	=309
4.c\	8e\	.	8ccn\	16cc\LL
.	.	.	.	16dd\
.	[<4c\	.	8g\L	16ee\
.	.	.	.	16ff\
.	.	.	8a\J	16ff#X\
.	.	.	.	16aa\JJ
=310	=310	=310	=310	=310
4.C\	4.c\]	.	16b-\LL	8gg\L
.	.	.	16d\	.
.	.	.	16e\	8bb-\
.	.	.	16f\J	.
.	.	.	8g\J	8ee\J
=311	=311	=311	=311	=311
4.C 4.FF\	4.c\	.	16a\LL	8ff\
.	.	.	16b-\	.
.	.	.	16a\	8ccc\L
.	.	.	16g\	.
.	.	.	16f\	8ddd\J
.	.	.	16a\JJ	.
!!LO:LB:g=original
=312	=312	=312	=312	=312
4.C 4.FF\	4.c\	.	(4.b-\	16aa\LL
.	.	.	.	16aa\
.	.	.	.	16gg\
.	.	.	.	16dd\
.	.	.	.	16ee\
.	.	.	.	16gg\JJ
=313	=313	=313	=313	=313
4.C 4.FF\	4.c\	.	4a\)	16ff\LL
.	.	.	.	16gg\
.	.	.	.	16ff\
.	.	.	.	16ee\
!	!	!	!LO:SIC:o:v=wytarte dźwięki	!
.	.	.	(16a\LL	16ff\
.	.	.	16b-\JJ)	16dd\JJ
=314	=314	=314	=314	=314
4.C 4.FF\	4.B-/	.	16g/LL	[4.cc/
.	.	.	16a/	.
.	.	.	16g/	.
.	.	.	16d/	.
.	.	.	16e/	.
.	.	.	16g/JJ	.
=315	=315	=315	=315	=315
4.C 4.FF\	4A/	.	16f/LL	4.cc/]
.	.	.	16g/	.
.	.	.	16f/	.
.	.	.	16e/	.
.	16A/LL	.	16f/	.
.	16B-/JJ	.	16d/JJ	.
=316	=316	=316	=316	=316
4.C 4.FF\	16G/LL	.	4.B-/	4.c/
.	16A/	.	.	.
.	16G/	.	.	.
.	16D/	.	.	.
.	16E/	.	.	.
.	16G/JJ	.	.	.
=317	=317	=317	=317	=317
4.C 4.FF\	16F/LL	.	4.A/	4.c/
.	16G/	.	.	.
.	16F/	.	.	.
.	16E/	.	.	.
.	16F/	.	.	.
.	16A/JJ	.	.	.
=318	=318	=318	=318	=318
4.C 4.FF\	16G/LL	.	4.B-/	4.c/
.	16A/	.	.	.
.	16G/	.	.	.
.	16D/	.	.	.
.	16E/	.	.	.
.	16G/JJ	.	.	.
=319	=319	=319	=319	=319
4.C 4.FF\	16F/LL	.	8A/	8c/
.	16G/	.	.	.
.	16A/	.	8r	8r
.	16B-/	.	.	.
.	16Bn/	.	8r	8r
.	16c/JJ	.	.	.
=320	=320	=320	=320	=320
4.C 4.FF\	4.B-X/	.	16d/LL	4.r
.	.	.	16e/	.
.	.	.	16f/	.
.	.	.	16g/	.
.	.	.	16a/	.
.	.	.	16b-/JJ	.
!!LO:PB:g=original
=321	=321	=321	=321	=321
4.C 4.FF\	4.A/	.	16bn\LL	4.r
.	.	.	16cc\	.
.	.	.	16dd\	.
.	.	.	16ee\	.
.	.	.	16ff\	.
.	.	.	16gg\JJ	.
=322	=322	=322	=322	=322
[4.C [4.FF\	4.B-/	.	8aa\L	16aa\LL
.	.	.	.	16bb-\
.	.	.	8aa-X\	16bbn\
.	.	.	.	16ccc\
.	.	.	8gg\J	16ddd\
.	.	.	.	16eee\JJ
=323	=323	=323	=323	=323
4.C] 4.FF\]	4.A/	.	4.ff\	4fff\
.	.	.	.	8r
==	==	==	==	==
*-	*-	*-	*-	*-
!!!system-decoration: [(s1,s2,s3,s4)]
!!!RDF**kern: > = above
!!!RDF**kern: < = below
!!!ENC: Filip Voros
!!!END: 2021-12-07
!!!ENC: Leszek Kubiak
!!!END: 2021-12-17
